; generated by Slic3r 1.2.9 on 2016-12-20 at 08:08:26

; external perimeters extrusion width = 0.50mm
; perimeters extrusion width = 0.58mm
; infill extrusion width = 0.58mm
; solid infill extrusion width = 0.58mm
; top infill extrusion width = 0.58mm

M107
M104 S205 ; set temperature
G28 ; home all axes
G1 X0 Y0 Z0 F5000 ; lift nozzle
M13 H25;
M11;
M109 S205 ; wait for temperature to be reached
G21 ; set units to millimeters
G90 ; use absolute coordinates
G1 Z0.500 F7800.000
G1 -2.00000 F2400.00000
G1 X24.638 Y43.415 F7800.000
G1 2.00000 F2400.00000
G1 X25.447 Y43.017 F1800.000
G1 X25.862 Y42.844
G1 X28.145 Y42.329
G1 X31.138 Y42.844
G1 X31.553 Y43.016 F1800.000
G1 X32.362 Y43.415
G1 X55.828 Y56.963
G1 X56.577 Y57.464
G1 X56.934 Y57.738
G1 X58.522 Y59.457
G1 X59.572 Y62.307
G1 X59.630 Y62.752
G1 X59.689 Y63.652
G1 X59.689 Y90.748
G1 X59.630 Y91.647
G1 X59.572 Y92.093
G1 X58.877 Y94.328
G1 X56.934 Y96.662
G1 X56.328 Y97.119
G1 X33.468 Y113.082
G1 X31.863 Y113.914
G1 X30.841 Y114.283
G1 X28.537 Y114.693
G1 X26.159 Y114.283
G1 X25.137 Y113.914
G1 X23.531 Y113.082
G1 X0.423 Y96.936
G1 X0.066 Y96.662
G1 X-1.522 Y94.943
G1 X-2.572 Y92.094
G1 X-2.630 Y91.648
G1 X-2.689 Y90.748
G1 X-2.689 Y63.652
G1 X-2.630 Y62.752
G1 X-2.572 Y62.307
G1 X-1.877 Y60.072
G1 X0.066 Y57.738
G1 X0.423 Y57.464
G1 X1.172 Y56.963
G1 X24.573 Y43.453
G1 0.00000 F2400.00000
G1 X26.093 Y98.637 F7800.000
G1 2.00000 F2400.00000
G1 X26.093 Y99.707 F1800.000
G1 X25.383 Y99.651
G1 X25.088 Y99.003
G1 X26.023 Y98.663
G1 X25.895 Y99.096 F7800.000
G1 X26.206 Y100.217 F7800.000
G1 X26.206 Y102.864 F1800.000
G1 0.00000 F2400.00000
G1 X27.914 Y104.006 F7800.000
G1 2.00000 F2400.00000
G1 X28.665 Y104.801 F1800.000
G1 X28.860 Y104.974
G1 X29.307 Y105.252
G1 X29.455 Y105.390
G1 X29.597 Y105.589
G1 X29.742 Y106.100
G1 X29.759 Y106.307
G1 X29.744 Y106.433
G1 X29.456 Y107.010
G1 X29.321 Y107.183
G1 X28.500 Y107.491
G1 X27.679 Y107.183
G1 X27.544 Y107.010
G1 X27.256 Y106.433
G1 X27.241 Y106.307
G1 X27.258 Y106.100
G1 X27.403 Y105.588
G1 X27.545 Y105.390
G1 X27.693 Y105.251
G1 X28.144 Y104.971
G1 X28.335 Y104.802
G1 X28.499 Y104.616
G1 X28.500 Y97.669
G1 X27.475 Y96.685 F7800.000
G1 X28.500 Y95.222 F1800.000
G1 X29.508 Y96.661
G1 X28.991 Y96.702
G1 X28.382 Y97.138
G1 X28.292 Y96.887
G1 X27.941 Y96.680
G1 X27.550 Y96.684
G1 X27.875 Y96.385 F7800.000
G1 0.00000 F2400.00000
G1 X31.253 Y95.919 F7800.000
G1 2.00000 F2400.00000
G1 X31.253 Y92.072 F1800.000
G1 X32.408 Y91.982 F7800.000
G1 X33.848 Y94.038 F1800.000
G1 X34.348 Y95.822 F7800.000
G1 X34.348 Y94.752 F1800.000
G1 X35.353 Y95.118
G1 X35.058 Y95.766
G1 X34.423 Y95.816
G1 X34.587 Y95.382 F7800.000
G1 X35.871 Y95.187 F7800.000
G1 X38.359 Y96.092 F1800.000
G1 X39.932 Y95.184 F7800.000
G1 X40.339 Y92.873 F1800.000
G1 X41.395 Y92.367 F7800.000
G1 X42.379 Y94.477 F1800.000
G1 0.00000 F2400.00000
G1 X44.493 Y93.057 F7800.000
G1 2.00000 F2400.00000
G1 X42.435 Y91.868 F1800.000
G1 X40.571 Y92.208 F7800.000
G1 X40.776 Y91.041 F1800.000
G1 X41.787 Y91.624
G1 X40.638 Y92.175
G1 X40.806 Y91.767 F7800.000
G1 X40.408 Y90.251 F7800.000
G1 X39.341 Y87.962 F1800.000
G1 X39.133 Y87.446 F7800.000
G1 X38.391 Y87.393 F1800.000
G1 X38.579 Y86.328
G1 X39.472 Y86.844
G1 X39.170 Y87.381
G1 X38.764 Y87.108 F7800.000
G1 X39.960 Y86.996 F7800.000
G1 X43.335 Y88.944 F1800.000
G1 0.00000 F2400.00000
G1 X43.352 Y85.775 F7800.000
G1 2.00000 F2400.00000
G1 X38.605 Y83.034 F1800.000
G1 X37.242 Y83.432 F7800.000
G1 X36.486 Y81.811 F1800.000
G1 X38.237 Y81.658
G1 X38.013 Y82.126
G1 X38.073 Y82.728
G1 X37.489 Y82.993
G1 X37.279 Y83.366
G1 X37.182 Y82.935 F7800.000
G1 X35.731 Y81.375 F7800.000
G1 X33.752 Y80.232 F1800.000
G1 X33.794 Y79.805
G1 X33.794 Y74.775
G1 X33.733 Y74.179
G1 X35.731 Y73.025
G1 0.00000 F2400.00000
G1 X34.488 Y74.728 F7800.000
G1 2.00000 F2400.00000
G1 X33.247 Y73.828 F1800.000
G1 X29.047 Y71.403
G1 X28.500 Y71.157
G1 X28.500 Y69.438
G1 X28.765 Y69.035
G1 X28.913 Y68.565
G1 X28.087 Y68.565 F7800.000
G1 X28.235 Y69.035 F1800.000
G1 X29.088 Y70.332
G1 X29.354 Y70.778 F7800.000
G1 X27.975 Y71.394 F1800.000
G1 X24.763 Y73.244
G1 X24.362 Y73.588
G1 X24.557 Y73.906
G1 X24.740 Y74.143
G1 X24.832 Y74.240
G1 X25.413 Y74.711
G1 X25.894 Y74.118 F7800.000
G1 X25.360 Y74.231 F1800.000
G1 X25.017 Y74.391
G1 X25.068 Y74.860
G1 X25.243 Y75.518
G1 X23.954 Y74.575 F7800.000
G1 X21.778 Y73.319 F1800.000
G1 X21.562 Y72.888
G1 X21.228 Y72.525
G1 X20.514 Y72.589 F7800.000
G1 X18.732 Y72.745 F1800.000
G1 X18.989 Y72.311
G1 X18.926 Y71.672
G1 X19.511 Y71.407
G1 X19.758 Y70.968
G1 X20.482 Y72.521
G1 X20.039 Y72.432 F7800.000
G1 X20.816 Y73.240 F7800.000
G1 X21.297 Y73.347 F1800.000
G1 X22.846 Y73.257
G1 0.00000 F2400.00000
G1 X26.147 Y72.959 F7800.000
G1 2.00000 F2400.00000
G1 X23.864 Y73.763 F1800.000
G1 X23.623 Y73.915
G1 X23.267 Y74.179
G1 X23.206 Y74.775
G1 X23.206 Y79.625
G1 X23.265 Y80.223
G1 X23.753 Y80.572
G1 X27.953 Y82.997
G1 X29.354 Y83.622
G1 X29.088 Y84.068 F7800.000
G1 X28.235 Y85.365 F1800.000
G1 X28.087 Y85.835
G1 X28.913 Y85.835 F7800.000
G1 X28.765 Y85.365 F1800.000
G1 X28.500 Y84.962
G1 X28.500 Y83.243
G1 X29.061 Y82.991
G1 X32.722 Y80.875
G1 X34.488 Y79.420
G1 X34.488 Y79.738 F7800.000
G1 X33.540 Y80.374 F1800.000
G1 X33.085 Y80.577
G1 X32.753 Y80.173
G1 X32.657 Y80.092
G1 X32.449 Y79.972
G1 X32.167 Y79.881
G1 X32.002 Y79.803
G1 X31.526 Y79.485
G1 X31.527 Y78.831
G1 X30.373 Y74.893
G1 X30.287 Y74.485
G1 X29.874 Y74.254
G1 X29.344 Y74.113
G1 X27.613 Y74.124 F7800.000
G1 X27.068 Y78.935 F1800.000
G1 X26.823 Y79.516
G1 X26.430 Y79.799
G1 X26.158 Y79.905
G1 X25.723 Y80.008
G1 X27.465 Y79.936 F7800.000
G1 X26.521 Y79.309 F1800.000
G1 X26.241 Y78.956
G1 X25.795 Y77.416
G1 0.00000 F2400.00000
G1 X23.954 Y79.825 F7800.000
G1 2.00000 F2400.00000
G1 X21.778 Y81.081 F1800.000
G1 X21.562 Y81.512
G1 X21.228 Y81.875
G1 X20.514 Y81.811 F7800.000
G1 X19.759 Y83.430 F1800.000
G1 X19.530 Y83.024
G1 X19.176 Y82.824
G1 X18.912 Y82.871
G1 X18.989 Y82.089
G1 X18.732 Y81.655
G1 X20.439 Y81.804
G1 X20.140 Y82.143 F7800.000
G1 X20.816 Y81.160 F7800.000
G1 X21.297 Y81.053 F1800.000
G1 X22.846 Y81.143
G1 X18.393 Y83.035 F7800.000
G1 X14.157 Y85.481 F1800.000
G1 X13.940 Y85.911
G1 X13.608 Y86.275
G1 X12.893 Y86.211 F7800.000
G1 X12.138 Y87.830 F1800.000
G1 X11.909 Y87.424
G1 X11.555 Y87.224
G1 X11.291 Y87.271
G1 X11.368 Y86.489
G1 X11.111 Y86.055
G1 X12.818 Y86.204
G1 X12.519 Y86.543 F7800.000
G1 X13.195 Y85.560 F7800.000
G1 X13.676 Y85.453 F1800.000
G1 X15.224 Y85.543
G1 0.00000 F2400.00000
G1 X17.039 Y86.996 F7800.000
G1 2.00000 F2400.00000
G1 X13.665 Y88.944 F1800.000
G1 0.00000 F2400.00000
G1 X14.841 Y91.709 F7800.000
G1 2.00000 F2400.00000
G1 X12.507 Y93.057 F1800.000
G1 X11.983 Y94.146 F7800.000
G1 X11.515 Y91.492 F1800.000
G1 X11.138 Y90.003 F7800.000
G1 X11.318 Y91.020 F1800.000
G1 X10.601 Y91.154
G1 X10.244 Y90.519
G1 X11.073 Y90.040
G1 X11.023 Y90.489 F7800.000
G1 X9.756 Y90.671 F7800.000
G1 X7.421 Y92.019 F1800.000
G1 0.00000 F2400.00000
G1 X4.256 Y91.150 F7800.000
G1 2.00000 F2400.00000
G1 X4.872 Y90.842 F1800.000
G1 X10.772 Y87.435
G1 0.00000 F2400.00000
G1 X8.731 Y85.834 F7800.000
G1 2.00000 F2400.00000
G1 X7.805 Y86.369 F1800.000
G1 X7.486 Y85.700
G1 X7.940 Y85.171
G1 X8.674 Y85.786
G1 X8.235 Y85.892 F7800.000
G1 X7.631 Y84.764 F7800.000
G1 X5.566 Y83.031 F1800.000
G1 X6.771 Y83.122 F7800.000
G1 X9.063 Y81.799 F1800.000
G1 X9.449 Y81.446 F7800.000
G1 X9.130 Y80.777 F1800.000
G1 X9.584 Y80.248
G1 X10.375 Y80.911
G1 X9.514 Y81.409
G1 X9.475 Y80.947 F7800.000
G1 X11.130 Y80.663 F7800.000
G1 X11.416 Y80.782 F1800.000
G1 X11.729 Y81.030
G1 X13.679 Y81.200
G1 X14.455 Y80.294 F7800.000
G1 X11.471 Y77.790 F1800.000
G1 X11.471 Y76.610 F7800.000
G1 X14.455 Y74.106 F1800.000
G1 X13.677 Y73.200 F7800.000
G1 X11.729 Y73.370 F1800.000
G1 X11.416 Y73.618
G1 X11.130 Y73.737
G1 X9.584 Y74.152 F7800.000
G1 X9.110 Y73.599 F1800.000
G1 X9.481 Y72.972
G1 X10.375 Y73.489
G1 X9.642 Y74.104
G1 X9.494 Y73.661 F7800.000
G1 X9.274 Y74.559 F7800.000
G1 X7.210 Y76.292 F1800.000
G1 X7.210 Y78.108 F7800.000
G1 X9.274 Y79.841 F1800.000
G1 0.00000 F2400.00000
G1 X10.912 Y84.175 F7800.000
G1 2.00000 F2400.00000
G1 X14.287 Y82.227 F1800.000
G1 X14.764 Y80.701 F7800.000
G1 X15.556 Y81.365 F1800.000
G1 X14.662 Y81.880
G1 X14.291 Y81.253
G1 X14.716 Y80.758
G1 X14.934 Y81.171 F7800.000
G1 0.00000 F2400.00000
G1 X18.421 Y86.328 F7800.000
G1 2.00000 F2400.00000
G1 X18.600 Y87.345 F1800.000
G1 X17.884 Y87.479
G1 X17.527 Y86.844
G1 X18.356 Y86.365
G1 X18.306 Y86.814 F7800.000
G1 X18.798 Y87.817 F7800.000
G1 X19.474 Y91.653 F1800.000
G1 X20.496 Y92.243 F7800.000
G1 X24.111 Y90.927 F1800.000
G1 X24.592 Y91.982 F7800.000
G1 X23.431 Y93.639 F1800.000
G1 X23.420 Y94.038
G1 X23.327 Y94.334
G1 X21.647 Y95.118 F7800.000
G1 X22.652 Y94.752 F1800.000
G1 X22.652 Y95.822
G1 X21.942 Y95.766
G1 X21.678 Y95.186
G1 X22.141 Y95.192 F7800.000
G1 X22.764 Y96.332 F7800.000
G1 X22.764 Y98.979 F1800.000
G1 X22.083 Y99.977 F7800.000
G1 X24.570 Y99.072 F1800.000
G1 0.00000 F2400.00000
G1 X25.747 Y95.919 F7800.000
G1 2.00000 F2400.00000
G1 X25.747 Y92.023 F1800.000
G1 X24.936 Y91.531 F7800.000
G1 X24.629 Y90.858 F1800.000
G1 X25.634 Y90.492
G1 X25.634 Y91.524
G1 X25.011 Y91.531
G1 X25.052 Y91.045 F7800.000
G1 0.00000 F2400.00000
G1 X29.088 Y92.869 F7800.000
G1 2.00000 F2400.00000
G1 X28.235 Y94.165 F1800.000
G1 X28.087 Y94.635
G1 X28.913 Y94.635 F7800.000
G1 X28.765 Y94.165 F1800.000
G1 X28.500 Y93.762
G1 X28.500 Y88.869
G1 X27.492 Y87.861 F7800.000
G1 X28.500 Y86.422 F1800.000
G1 X29.508 Y87.861
G1 X28.991 Y87.902
G1 X28.500 Y88.254
G1 X28.009 Y87.902
G1 X27.567 Y87.867
G1 X27.901 Y87.573 F7800.000
G1 0.00000 F2400.00000
G1 X31.366 Y90.492 F7800.000
G1 2.00000 F2400.00000
G1 X32.371 Y90.858 F1800.000
G1 X32.075 Y91.506
G1 X31.366 Y91.562
G1 X31.366 Y90.567
G1 X31.729 Y90.836 F7800.000
G1 X32.889 Y90.927 F7800.000
G1 X36.504 Y92.243 F1800.000
G1 X37.526 Y91.653 F7800.000
G1 X38.191 Y87.880 F1800.000
G1 0.00000 F2400.00000
G1 X42.756 Y82.252 F7800.000
G1 2.00000 F2400.00000
G1 X46.088 Y84.175 F1800.000
G1 0.00000 F2400.00000
G1 X44.107 Y86.211 F7800.000
G1 2.00000 F2400.00000
G1 X45.887 Y86.055 F1800.000
G1 X45.650 Y86.456
G1 X45.656 Y87.095
G1 X45.086 Y87.436
G1 X44.863 Y87.832
G1 X44.139 Y86.279
G1 X44.582 Y86.368 F7800.000
G1 X46.142 Y87.386 F7800.000
G1 X52.128 Y90.842 F1800.000
G1 X52.757 Y91.051
G1 0.00000 F2400.00000
G1 X51.873 Y88.045 F7800.000
G1 2.00000 F2400.00000
G1 X49.580 Y86.722 F1800.000
G1 X48.268 Y85.834 F7800.000
G1 X49.088 Y85.147 F1800.000
G1 X49.501 Y85.726
G1 X49.195 Y86.369
G1 X48.333 Y85.872
G1 X48.747 Y85.691 F7800.000
G1 X49.406 Y84.733 F7800.000
G1 X51.434 Y83.031 F1800.000
G1 X50.229 Y83.122 F7800.000
G1 X47.937 Y81.799 F1800.000
G1 X47.551 Y81.446 F7800.000
G1 X46.625 Y80.911 F1800.000
G1 X47.444 Y80.224
G1 X47.858 Y80.804
G1 X47.583 Y81.378
G1 X47.290 Y81.020 F7800.000
G1 X47.763 Y79.810 F7800.000
G1 X49.790 Y78.108 F1800.000
G1 X49.790 Y76.292 F7800.000
G1 X47.725 Y74.558 F1800.000
G1 X47.415 Y74.152 F7800.000
G1 X46.625 Y73.489 F1800.000
G1 X47.551 Y72.954
G1 X47.869 Y73.621
G1 X47.464 Y74.095
G1 X47.245 Y73.681 F7800.000
G1 X47.937 Y72.601 F7800.000
G1 X50.229 Y71.278 F1800.000
G1 X51.434 Y71.369 F7800.000
G1 X49.406 Y69.667 F1800.000
G1 X49.088 Y69.253 F7800.000
G1 X48.269 Y68.566 F1800.000
G1 X49.195 Y68.031
G1 X49.501 Y68.674
G1 X49.131 Y69.192
G1 X48.905 Y68.788 F7800.000
G1 X49.580 Y67.678 F7800.000
G1 X51.873 Y66.355 F1800.000
G1 0.00000 F2400.00000
G1 X52.592 Y63.094 F7800.000
G1 2.00000 F2400.00000
G1 X52.128 Y63.558 F1800.000
G1 X46.142 Y67.014
G1 X45.889 Y68.345 F7800.000
G1 X44.107 Y68.189 F1800.000
G1 X44.862 Y66.570
G1 X45.091 Y66.976
G1 X45.647 Y67.290
G1 X45.658 Y67.955
G1 X45.851 Y68.280
G1 X45.429 Y68.149 F7800.000
G1 0.00000 F2400.00000
G1 X43.335 Y65.456 F7800.000
G1 2.00000 F2400.00000
G1 X39.961 Y67.404 F1800.000
G1 X39.473 Y67.556 F7800.000
G1 X38.579 Y68.072 F1800.000
G1 X38.393 Y67.019
G1 X39.131 Y66.948
G1 X39.436 Y67.490
G1 X38.973 Y67.554 F7800.000
G1 X39.347 Y66.424 F7800.000
G1 X40.408 Y64.149 F1800.000
G1 X40.776 Y63.359 F7800.000
G1 X40.591 Y62.306 F1800.000
G1 X41.328 Y62.235
G1 X41.671 Y62.843
G1 X40.841 Y63.322
G1 X40.892 Y62.873 F7800.000
G1 X42.159 Y62.691 F7800.000
G1 X44.493 Y61.343 F1800.000
G1 X45.017 Y60.254 F7800.000
G1 X45.477 Y62.861 F1800.000
G1 X45.676 Y63.344 F7800.000
G1 X46.414 Y63.273 F1800.000
G1 X46.756 Y63.881
G1 X45.862 Y64.397
G1 X45.689 Y63.418
G1 X46.136 Y63.539 F7800.000
G1 X47.244 Y63.729 F7800.000
G1 X49.579 Y62.381 F1800.000
G1 0.00000 F2400.00000
G1 X46.088 Y70.225 F7800.000
G1 2.00000 F2400.00000
G1 X42.713 Y72.173 F1800.000
G1 X42.338 Y72.520 F7800.000
G1 X42.693 Y73.121 F1800.000
G1 X42.264 Y73.723
G1 X41.444 Y73.035
G1 X42.273 Y72.557
G1 X42.341 Y73.020 F7800.000
G1 X43.255 Y73.194 F7800.000
G1 X45.756 Y73.413 F1800.000
G1 0.00000 F2400.00000
G1 X45.529 Y76.610 F7800.000
G1 2.00000 F2400.00000
G1 X42.582 Y74.137 F1800.000
G1 0.00000 F2400.00000
G1 X45.529 Y77.790 F7800.000
G1 2.00000 F2400.00000
G1 X42.582 Y80.263 F1800.000
G1 X42.264 Y80.677 F7800.000
G1 X42.677 Y81.257 F1800.000
G1 X42.371 Y81.899
G1 X41.444 Y81.365
G1 X42.206 Y80.725
G1 X42.325 Y81.173 F7800.000
G1 X43.255 Y81.206 F7800.000
G1 X45.756 Y80.987 F1800.000
G1 0.00000 F2400.00000
G1 X45.862 Y90.003 F7800.000
G1 2.00000 F2400.00000
G1 X46.788 Y90.538 F1800.000
G1 X46.368 Y91.149
G1 X45.682 Y91.020
G1 X45.849 Y90.077
G1 X46.160 Y90.404 F7800.000
G1 X47.286 Y90.695 F7800.000
G1 X49.579 Y92.019 F1800.000
G1 0.00000 F2400.00000
G1 X45.485 Y91.492 F7800.000
G1 2.00000 F2400.00000
G1 X45.017 Y94.146 F1800.000
G1 0.00000 F2400.00000
G1 X34.236 Y96.332 F7800.000
G1 2.00000 F2400.00000
G1 X34.236 Y98.979 F1800.000
G1 X34.917 Y99.977 F7800.000
G1 X32.430 Y99.072 F1800.000
G1 X31.912 Y99.003 F7800.000
G1 X31.617 Y99.651 F1800.000
G1 X30.907 Y99.707
G1 X30.907 Y98.637
G1 X31.841 Y98.977
G1 X31.512 Y99.304 F7800.000
G1 X30.794 Y100.217 F7800.000
G1 X30.794 Y102.864 F1800.000
G1 0.00000 F2400.00000
G1 X21.129 Y95.187 F7800.000
G1 2.00000 F2400.00000
G1 X18.641 Y96.092 F1800.000
G1 X17.068 Y95.184 F7800.000
G1 X16.600 Y92.529 F1800.000
G1 X16.403 Y92.058 F7800.000
G1 X15.687 Y92.192 F1800.000
G1 X15.329 Y91.557
G1 X16.224 Y91.041
G1 X16.390 Y91.984
G1 X15.932 Y91.890 F7800.000
G1 X16.815 Y90.511 F7800.000
G1 X16.856 Y90.204 F1800.000
G1 X16.798 Y89.809
G1 X17.624 Y88.037
G1 0.00000 F2400.00000
G1 X7.420 Y86.722 F7800.000
G1 2.00000 F2400.00000
G1 X5.127 Y88.045 F1800.000
G1 0.00000 F2400.00000
G1 X9.105 Y72.626 F7800.000
G1 2.00000 F2400.00000
G1 X6.771 Y71.278 F1800.000
G1 X5.566 Y71.369 F7800.000
G1 X7.631 Y69.636 F1800.000
G1 X7.940 Y69.229 F7800.000
G1 X7.466 Y68.676 F1800.000
G1 X7.837 Y68.049
G1 X8.731 Y68.566
G1 X7.998 Y69.181
G1 X7.850 Y68.738 F7800.000
G1 X7.461 Y67.703 F7800.000
G1 X5.127 Y66.355 F1800.000
G1 0.00000 F2400.00000
G1 X4.872 Y62.966 F7800.000
G1 2.00000 F2400.00000
G1 X4.872 Y63.558 F1800.000
G1 X10.772 Y66.965
G1 X11.111 Y68.345 F7800.000
G1 X11.368 Y67.911 F1800.000
G1 X11.305 Y67.272
G1 X11.890 Y67.007
G1 X12.137 Y66.568
G1 X12.893 Y68.189
G1 X11.186 Y68.338
G1 X11.487 Y68.015 F7800.000
G1 X13.195 Y68.840 F7800.000
G1 X13.676 Y68.947 F1800.000
G1 X15.224 Y68.857
G1 X13.608 Y68.125 F7800.000
G1 X13.940 Y68.489 F1800.000
G1 X14.157 Y68.919
G1 X18.393 Y71.365
G1 0.00000 F2400.00000
G1 X14.661 Y72.519 F7800.000
G1 2.00000 F2400.00000
G1 X15.556 Y73.035 F1800.000
G1 X14.764 Y73.699
G1 X14.290 Y73.146
G1 X14.623 Y72.584
G1 X14.910 Y72.953 F7800.000
G1 X14.285 Y72.172 F7800.000
G1 X10.912 Y70.225 F1800.000
G1 0.00000 F2400.00000
G1 X13.665 Y65.456 F7800.000
G1 2.00000 F2400.00000
G1 X17.039 Y67.404 F1800.000
G1 X17.624 Y66.363 F7800.000
G1 X16.798 Y64.591 F1800.000
G1 X16.856 Y64.196
G1 X16.815 Y63.889
G1 X16.224 Y63.359 F7800.000
G1 X15.329 Y62.843 F1800.000
G1 X15.687 Y62.208
G1 X16.403 Y62.342
G1 X16.237 Y63.285
G1 X15.925 Y62.958 F7800.000
G1 X16.600 Y61.871 F7800.000
G1 X17.068 Y59.216 F1800.000
G1 X18.641 Y58.308 F7800.000
G1 X20.875 Y59.121 F1800.000
G1 X21.812 Y58.449 F7800.000
G1 X20.812 Y57.021 F1800.000
G1 X20.812 Y56.468
G1 0.00000 F2400.00000
G1 X22.764 Y55.421 F7800.000
G1 2.00000 F2400.00000
G1 X22.764 Y57.767 F1800.000
G1 X21.555 Y59.249 F7800.000
G1 X22.652 Y58.463 F1800.000
G1 X22.652 Y59.648
G1 X21.625 Y59.274
G1 X22.033 Y59.102 F7800.000
G1 X23.327 Y60.066 F7800.000
G1 X23.420 Y60.362 F1800.000
G1 X23.431 Y60.761
G1 X24.553 Y62.363
G1 X25.747 Y62.376 F7800.000
G1 X25.747 Y58.480 F1800.000
G1 0.00000 F2400.00000
G1 X28.087 Y59.765 F7800.000
G1 2.00000 F2400.00000
G1 X28.235 Y60.235 F1800.000
G1 X29.088 Y61.531
G1 X28.913 Y59.765 F7800.000
G1 X28.765 Y60.235 F1800.000
G1 X28.500 Y60.638
G1 X28.500 Y65.530
G1 X27.474 Y66.513 F7800.000
G1 X27.978 Y66.519 F1800.000
G1 X28.500 Y66.145
G1 X29.022 Y66.519
G1 X29.526 Y66.513
G1 X28.500 Y67.978
G1 X27.517 Y66.575
G1 X27.948 Y66.674 F7800.000
G1 0.00000 F2400.00000
G1 X31.366 Y63.908 F7800.000
G1 2.00000 F2400.00000
G1 X31.366 Y62.875 F1800.000
G1 X32.094 Y62.867
G1 X32.336 Y63.554
G1 X31.436 Y63.882
G1 X31.564 Y63.448 F7800.000
G1 X32.843 Y63.489 F7800.000
G1 X36.504 Y62.157 F1800.000
G1 X37.526 Y62.747 F7800.000
G1 X38.194 Y66.536 F1800.000
G1 0.00000 F2400.00000
G1 X38.521 Y71.414 F7800.000
G1 2.00000 F2400.00000
G1 X43.352 Y68.625 F1800.000
G1 0.00000 F2400.00000
G1 X37.241 Y70.970 F7800.000
G1 2.00000 F2400.00000
G1 X37.470 Y71.376 F1800.000
G1 X38.026 Y71.690
G1 X38.037 Y72.355
G1 X38.268 Y72.745
G1 X36.486 Y72.589
G1 X37.210 Y71.038
G1 X37.332 Y71.427 F7800.000
G1 0.00000 F2400.00000
G1 X40.391 Y61.823 F7800.000
G1 2.00000 F2400.00000
G1 X39.932 Y59.216 F1800.000
G1 X38.359 Y58.308 F7800.000
G1 X35.826 Y59.230 F1800.000
G1 X34.348 Y59.648 F7800.000
G1 X34.348 Y58.615 F1800.000
G1 X35.077 Y58.607
G1 X35.319 Y59.295
G1 X34.419 Y59.622
G1 X34.546 Y59.189 F7800.000
G1 X34.236 Y58.116 F7800.000
G1 X34.236 Y55.421 F1800.000
G1 X34.917 Y54.423 F7800.000
G1 X32.384 Y55.345 F1800.000
G1 X31.877 Y55.410 F7800.000
G1 X30.907 Y55.763 F1800.000
G1 X30.907 Y54.730
G1 X31.635 Y54.722
G1 X31.852 Y55.339
G1 X31.385 Y55.321 F7800.000
G1 X30.794 Y54.231 F7800.000
G1 X30.794 Y51.536 F1800.000
G1 0.00000 F2400.00000
G1 X28.294 Y49.298 F7800.000
G1 2.00000 F2400.00000
G1 X28.500 Y49.917 F1800.000
G1 X28.500 Y56.730
G1 X29.526 Y57.713 F7800.000
G1 X28.500 Y59.178 F1800.000
G1 X27.474 Y57.713
G1 X27.978 Y57.719
G1 X28.500 Y57.345
G1 X29.022 Y57.719
G1 X29.451 Y57.714
G1 X29.126 Y58.013 F7800.000
G1 X31.253 Y58.480 F7800.000
G1 X31.253 Y62.376 F1800.000
G1 X32.447 Y62.363 F7800.000
G1 X33.848 Y60.362 F1800.000
G1 0.00000 F2400.00000
G1 X25.634 Y62.875 F7800.000
G1 2.00000 F2400.00000
G1 X25.634 Y63.908 F1800.000
G1 X24.664 Y63.554
G1 X24.906 Y62.867
G1 X25.559 Y62.874
G1 X25.383 Y63.307 F7800.000
G1 X24.157 Y63.489 F7800.000
G1 X20.496 Y62.157 F1800.000
G1 X19.474 Y62.747 F7800.000
G1 X18.798 Y66.583 F1800.000
G1 X18.600 Y67.055 F7800.000
G1 X18.421 Y68.072 F1800.000
G1 X17.527 Y67.556
G1 X17.884 Y66.921
G1 X18.527 Y67.041
G1 X18.278 Y67.437 F7800.000
G1 0.00000 F2400.00000
G1 X14.841 Y62.691 F7800.000
G1 2.00000 F2400.00000
G1 X12.507 Y61.343 F1800.000
G1 X11.983 Y60.254 F7800.000
G1 X11.515 Y62.908 F1800.000
G1 X11.138 Y64.397 F7800.000
G1 X10.244 Y63.881 F1800.000
G1 X10.601 Y63.246
G1 X11.318 Y63.380
G1 X11.151 Y64.323
G1 X10.840 Y63.996 F7800.000
G1 X9.756 Y63.729 F7800.000
G1 X7.421 Y62.381 F1800.000
G1 0.00000 F2400.00000
G1 X22.083 Y54.423 F7800.000
G1 2.00000 F2400.00000
G1 X24.616 Y55.345 F1800.000
G1 X25.123 Y55.410 F7800.000
G1 X25.365 Y54.722 F1800.000
G1 X26.093 Y54.730
G1 X26.093 Y55.763
G1 X25.193 Y55.435
G1 X25.504 Y55.085 F7800.000
G1 X26.206 Y54.231 F7800.000
G1 X26.206 Y51.536 F1800.000
M104 S200 ; set temperature
G1 Z0.900 F7800.000
G1 0.00000 F2400.00000
G1 X24.818 Y73.725 F7800.000
G1 2.00000 F2400.00000
G1 X28.204 Y71.771 F900.000
G1 X28.500 Y71.691
G1 X28.796 Y71.771
G1 X33.054 Y74.229
G1 X33.271 Y74.446
G1 X33.350 Y74.742
G1 X33.350 Y80.074
G1 X32.565 Y80.017
G1 X32.666 Y80.395
G1 X28.796 Y82.629
G1 X28.500 Y82.709
G1 X28.203 Y82.629
G1 X23.946 Y80.171
G1 X23.729 Y79.954
G1 X23.650 Y79.658
G1 X23.650 Y74.742
G1 X23.729 Y74.446
G1 X23.946 Y74.229
G1 X24.194 Y74.086
G1 X24.459 Y74.197
G1 X24.663 Y74.330
G1 X24.870 Y74.579
G1 X25.065 Y74.955
G1 X25.237 Y74.412
G1 X25.495 Y74.175
G1 X24.937 Y74.167
G1 X24.838 Y73.798
G1 X24.607 Y73.272 F7800.000
G1 0.00000 F2400.00000
G1 X28.500 Y67.647 F7800.000
G1 2.00000 F2400.00000
G1 X27.909 Y66.803 F900.000
G1 X28.500 Y66.379
G1 X29.091 Y66.803
G1 X28.543 Y67.585
G1 X31.556 Y63.636 F7800.000
G1 X31.556 Y63.063 F900.000
G1 X31.960 Y63.059
G1 X32.094 Y63.440
G1 X31.626 Y63.610
G1 X34.538 Y59.376 F7800.000
G1 X34.538 Y58.804 F900.000
G1 X34.942 Y58.799
G1 X35.076 Y59.181
G1 X34.609 Y59.351
G1 0.00000 F2400.00000
G1 X31.635 Y55.296 F7800.000
G1 2.00000 F2400.00000
G1 X31.097 Y55.491 F900.000
G1 X31.097 Y54.919
G1 X31.501 Y54.914
G1 X31.610 Y55.225
G1 X29.091 Y58.003 F7800.000
G1 X28.500 Y58.847 F900.000
G1 X27.909 Y58.003
G1 X28.500 Y57.579
G1 X29.030 Y57.959
G1 0.00000 F2400.00000
G1 X25.903 Y55.491 F7800.000
G1 2.00000 F2400.00000
G1 X25.365 Y55.296 F900.000
G1 X25.499 Y54.914
G1 X25.903 Y54.919
G1 X25.903 Y55.416
G1 0.00000 F2400.00000
G1 X22.462 Y58.804 F7800.000
G1 2.00000 F2400.00000
G1 X22.462 Y59.376 F900.000
G1 X21.924 Y59.181
G1 X22.058 Y58.799
G1 X22.387 Y58.803
G1 X25.444 Y63.063 F7800.000
G1 X25.444 Y63.636 F900.000
G1 X24.906 Y63.440
G1 X25.040 Y63.059
G1 X25.369 Y63.063
G1 0.00000 F2400.00000
G1 X18.381 Y67.208 F7800.000
G1 2.00000 F2400.00000
G1 X18.281 Y67.772 F900.000
G1 X17.785 Y67.485
G1 X17.983 Y67.133
G1 X18.307 Y67.194
G1 X16.083 Y63.059 F7800.000
G1 X15.588 Y62.773 F900.000
G1 X15.786 Y62.421
G1 X16.183 Y62.495
G1 X16.097 Y62.985
G1 0.00000 F2400.00000
G1 X11.098 Y63.533 F7800.000
G1 2.00000 F2400.00000
G1 X10.998 Y64.097 F900.000
G1 X10.502 Y63.810
G1 X10.701 Y63.458
G1 X11.024 Y63.519
G1 X12.170 Y67.090 F7800.000
G1 X12.606 Y68.023 F900.000
G1 X11.579 Y68.113
G1 X11.508 Y67.390
G1 X12.102 Y67.121
G1 0.00000 F2400.00000
G1 X8.401 Y68.595 F7800.000
G1 2.00000 F2400.00000
G1 X7.963 Y68.963 F900.000
G1 X7.700 Y68.656
G1 X7.906 Y68.308
G1 X8.336 Y68.557
G1 0.00000 F2400.00000
G1 X9.549 Y73.231 F7800.000
G1 2.00000 F2400.00000
G1 X10.045 Y73.518 F900.000
G1 X9.607 Y73.886
G1 X9.344 Y73.579
G1 X9.511 Y73.296
G1 X14.524 Y73.126 F7800.000
G1 X14.730 Y72.778 F900.000
G1 X15.225 Y73.064
G1 X14.787 Y73.432
G1 X14.573 Y73.183
G1 X19.200 Y72.513 F7800.000
G1 X19.129 Y71.790 F900.000
G1 X19.791 Y71.490
G1 X20.227 Y72.423
G1 X19.275 Y72.507
G1 0.00000 F2400.00000
G1 X19.200 Y81.887 F7800.000
G1 2.00000 F2400.00000
G1 X20.227 Y81.977 F900.000
G1 X19.791 Y82.910
G1 X19.129 Y82.610
G1 X19.193 Y81.961
G1 X15.225 Y81.336 F7800.000
G1 X14.730 Y81.622 F900.000
G1 X14.524 Y81.274
G1 X14.787 Y80.968
G1 X15.168 Y81.287
G1 X10.045 Y80.882 F7800.000
G1 X9.549 Y81.169 F900.000
G1 X9.344 Y80.821
G1 X9.607 Y80.514
G1 X9.988 Y80.834
G1 0.00000 F2400.00000
G1 X7.963 Y85.437 F7800.000
G1 2.00000 F2400.00000
G1 X8.401 Y85.805 F900.000
G1 X7.906 Y86.092
G1 X7.700 Y85.744
G1 X7.914 Y85.494
G1 X11.579 Y86.287 F7800.000
G1 X12.606 Y86.377 F900.000
G1 X12.170 Y87.310
G1 X11.508 Y87.010
G1 X11.572 Y86.361
G1 0.00000 F2400.00000
G1 X10.998 Y90.303 F7800.000
G1 2.00000 F2400.00000
G1 X11.098 Y90.867 F900.000
G1 X10.701 Y90.942
G1 X10.502 Y90.590
G1 X10.933 Y90.341
G1 0.00000 F2400.00000
G1 X15.588 Y91.627 F7800.000
G1 2.00000 F2400.00000
G1 X16.083 Y91.341 F900.000
G1 X16.183 Y91.905
G1 X15.786 Y91.979
G1 X15.624 Y91.693
G1 X17.785 Y86.915 F7800.000
G1 X18.281 Y86.628 F900.000
G1 X18.381 Y87.192
G1 X17.983 Y87.267
G1 X17.822 Y86.980
G1 0.00000 F2400.00000
G1 X24.906 Y90.960 F7800.000
G1 2.00000 F2400.00000
G1 X25.444 Y90.764 F900.000
G1 X25.444 Y91.337
G1 X25.040 Y91.341
G1 X24.931 Y91.031
G1 X22.462 Y95.024 F7800.000
G1 X22.462 Y95.596 F900.000
G1 X22.058 Y95.601
G1 X21.924 Y95.219
G1 X22.391 Y95.049
G1 0.00000 F2400.00000
G1 X25.365 Y99.104 F7800.000
G1 2.00000 F2400.00000
G1 X25.903 Y98.909 F900.000
G1 X25.903 Y99.481
G1 X25.499 Y99.486
G1 X25.390 Y99.175
G1 X27.909 Y96.397 F7800.000
G1 X28.500 Y95.553 F900.000
G1 X29.091 Y96.397
G1 X28.500 Y96.821
G1 X27.970 Y96.441
G1 0.00000 F2400.00000
G1 X31.097 Y98.909 F7800.000
G1 2.00000 F2400.00000
G1 X31.635 Y99.104 F900.000
G1 X31.501 Y99.486
G1 X31.097 Y99.481
G1 X31.097 Y98.984
G1 0.00000 F2400.00000
G1 X34.538 Y95.596 F7800.000
G1 2.00000 F2400.00000
G1 X34.538 Y95.024 F900.000
G1 X35.076 Y95.219
G1 X34.942 Y95.601
G1 X34.613 Y95.597
G1 X31.556 Y91.337 F7800.000
G1 X31.556 Y90.764 F900.000
G1 X32.094 Y90.960
G1 X31.960 Y91.341
G1 X31.631 Y91.337
G1 X29.091 Y87.597 F7800.000
G1 X28.500 Y88.021 F900.000
G1 X27.909 Y87.597
G1 X28.500 Y86.753
G1 X29.048 Y87.536
G1 0.00000 F2400.00000
G1 X37.209 Y82.910 F7800.000
G1 2.00000 F2400.00000
G1 X36.773 Y81.977 F900.000
G1 X37.800 Y81.887
G1 X37.871 Y82.610
G1 X37.277 Y82.879
G1 X38.719 Y86.628 F7800.000
G1 X39.215 Y86.915 F900.000
G1 X39.017 Y87.267
G1 X38.619 Y87.192
G1 X38.706 Y86.702
G1 X40.917 Y91.341 F7800.000
G1 X41.412 Y91.627 F900.000
G1 X41.214 Y91.979
G1 X40.817 Y91.905
G1 X40.903 Y91.415
G1 0.00000 F2400.00000
G1 X45.902 Y90.867 F7800.000
G1 2.00000 F2400.00000
G1 X46.002 Y90.303 F900.000
G1 X46.498 Y90.590
G1 X46.299 Y90.942
G1 X45.976 Y90.881
G1 X44.830 Y87.310 F7800.000
G1 X44.394 Y86.377 F900.000
G1 X45.421 Y86.287
G1 X45.492 Y87.010
G1 X44.898 Y87.279
G1 0.00000 F2400.00000
G1 X48.599 Y85.805 F7800.000
G1 2.00000 F2400.00000
G1 X49.037 Y85.437 F900.000
G1 X49.300 Y85.744
G1 X49.094 Y86.092
G1 X48.664 Y85.843
G1 0.00000 F2400.00000
G1 X47.451 Y81.169 F7800.000
G1 2.00000 F2400.00000
G1 X46.955 Y80.882 F900.000
G1 X47.393 Y80.514
G1 X47.656 Y80.821
G1 X47.489 Y81.104
G1 X42.476 Y81.274 F7800.000
G1 X42.270 Y81.622 F900.000
G1 X41.775 Y81.336
G1 X42.213 Y80.968
G1 X42.427 Y81.217
G1 0.00000 F2400.00000
G1 X42.213 Y73.432 F7800.000
G1 2.00000 F2400.00000
G1 X41.775 Y73.064 F900.000
G1 X42.270 Y72.778
G1 X42.476 Y73.126
G1 X42.262 Y73.375
G1 X37.800 Y72.513 F7800.000
G1 X36.773 Y72.423 F900.000
G1 X37.209 Y71.490
G1 X37.871 Y71.790
G1 X37.807 Y72.439
G1 0.00000 F2400.00000
G1 X38.719 Y67.772 F7800.000
G1 2.00000 F2400.00000
G1 X38.619 Y67.208 F900.000
G1 X39.017 Y67.133
G1 X39.215 Y67.485
G1 X38.784 Y67.734
G1 X40.917 Y63.059 F7800.000
G1 X40.817 Y62.495 F900.000
G1 X41.214 Y62.421
G1 X41.412 Y62.773
G1 X40.981 Y63.021
G1 0.00000 F2400.00000
G1 X45.902 Y63.533 F7800.000
G1 2.00000 F2400.00000
G1 X46.299 Y63.458 F900.000
G1 X46.498 Y63.810
G1 X46.002 Y64.097
G1 X45.915 Y63.607
G1 X44.830 Y67.090 F7800.000
G1 X45.492 Y67.390 F900.000
G1 X45.421 Y68.113
G1 X44.394 Y68.023
G1 X44.798 Y67.158
G1 0.00000 F2400.00000
G1 X48.599 Y68.595 F7800.000
G1 2.00000 F2400.00000
G1 X49.094 Y68.308 F900.000
G1 X49.300 Y68.656
G1 X49.037 Y68.963
G1 X48.656 Y68.643
G1 0.00000 F2400.00000
G1 X47.451 Y73.231 F7800.000
G1 2.00000 F2400.00000
G1 X47.656 Y73.579 F900.000
G1 X47.393 Y73.886
G1 X46.955 Y73.518
G1 X47.386 Y73.269
G1 X47.895 Y73.093 F7800.000
G1 X48.016 Y73.298 F1800.000
G1 X48.197 Y73.375
G1 X49.888 Y73.523
G1 X50.092 Y73.629
G1 X50.145 Y73.797
G1 X50.064 Y73.952
G1 X49.845 Y74.021
G1 X48.153 Y73.873
G1 X47.962 Y73.918
G1 X47.807 Y74.099
G1 X47.788 Y74.336
G1 X47.892 Y74.503
G1 X49.565 Y75.907
G1 X49.626 Y75.994
G1 X49.633 Y76.067
G1 X49.602 Y76.133
G1 X49.542 Y76.175
G1 X49.469 Y76.182
G1 X49.372 Y76.136
G1 X46.645 Y73.848
G1 X46.492 Y73.755
G1 X46.318 Y73.713
G1 X42.973 Y73.420
G1 X42.782 Y73.465
G1 X42.626 Y73.646
G1 X42.608 Y73.883
G1 X42.712 Y74.050
G1 X45.304 Y76.225
G1 X45.365 Y76.313
G1 X45.372 Y76.385
G1 X45.341 Y76.452
G1 X45.281 Y76.494
G1 X45.208 Y76.500
G1 X45.111 Y76.455
G1 X41.465 Y73.395
G1 X41.312 Y73.302
G1 X41.137 Y73.260
G1 X36.883 Y72.887
G1 X36.704 Y72.899
G1 X36.537 Y72.964
G1 X34.250 Y74.284
G1 X34.250 Y80.116
G1 X36.537 Y81.436
G1 X36.704 Y81.501
G1 X36.883 Y81.513
G1 X41.137 Y81.140
G1 X41.312 Y81.098
G1 X41.465 Y81.005
G1 X45.111 Y77.945
G1 X45.208 Y77.900
G1 X45.281 Y77.906
G1 X45.341 Y77.948
G1 X45.372 Y78.015
G1 X45.365 Y78.087
G1 X45.304 Y78.175
G1 X42.712 Y80.350
G1 X42.608 Y80.517
G1 X42.626 Y80.754
G1 X42.782 Y80.935
G1 X42.973 Y80.980
G1 X46.318 Y80.687
G1 X46.492 Y80.645
G1 X46.645 Y80.552
G1 X49.372 Y78.264
G1 X49.469 Y78.218
G1 X49.542 Y78.225
G1 X49.602 Y78.267
G1 X49.633 Y78.333
G1 X49.626 Y78.406
G1 X49.565 Y78.493
G1 X47.892 Y79.897
G1 X47.788 Y80.064
G1 X47.807 Y80.301
G1 X47.962 Y80.482
G1 X48.153 Y80.527
G1 X49.845 Y80.379
G1 X50.064 Y80.448
G1 X50.145 Y80.603
G1 X50.092 Y80.771
G1 X49.888 Y80.877
G1 X48.197 Y81.025
G1 X48.016 Y81.102
G1 X47.895 Y81.307
G1 X47.918 Y81.544
G1 X48.049 Y81.690
G1 X49.940 Y82.782
G1 X50.016 Y82.858
G1 X50.035 Y82.928
G1 X50.016 Y82.999
G1 X49.964 Y83.051
G1 X49.893 Y83.070
G1 X49.790 Y83.042
G1 X46.707 Y81.262
G1 X46.540 Y81.197
G1 X46.361 Y81.185
G1 X43.016 Y81.478
G1 X42.836 Y81.555
G1 X42.714 Y81.760
G1 X42.738 Y81.997
G1 X42.869 Y82.144
G1 X45.799 Y83.835
G1 X45.875 Y83.911
G1 X45.894 Y83.982
G1 X45.875 Y84.052
G1 X45.823 Y84.104
G1 X45.752 Y84.123
G1 X45.649 Y84.095
G1 X41.527 Y81.715
G1 X41.360 Y81.650
G1 X41.181 Y81.639
G1 X38.582 Y81.866
G1 X38.401 Y81.943
G1 X38.280 Y82.148
G1 X38.303 Y82.385
G1 X38.435 Y82.532
G1 X44.158 Y85.836
G1 X44.325 Y85.901
G1 X44.504 Y85.913
G1 X47.961 Y85.610
G1 X48.136 Y85.568
G1 X48.289 Y85.475
G1 X51.016 Y83.186
G1 X51.113 Y83.141
G1 X51.186 Y83.148
G1 X51.246 Y83.189
G1 X51.276 Y83.256
G1 X51.270 Y83.329
G1 X51.209 Y83.416
G1 X49.536 Y84.820
G1 X49.432 Y84.987
G1 X49.451 Y85.224
G1 X49.606 Y85.405
G1 X49.797 Y85.450
G1 X51.489 Y85.302
G1 X51.707 Y85.371
G1 X51.788 Y85.526
G1 X51.736 Y85.694
G1 X51.532 Y85.800
G1 X49.841 Y85.948
G1 X49.660 Y86.025
G1 X49.539 Y86.230
G1 X49.562 Y86.467
G1 X49.693 Y86.613
G1 X51.584 Y87.705
G1 X51.660 Y87.781
G1 X51.679 Y87.851
G1 X51.660 Y87.922
G1 X51.608 Y87.974
G1 X51.537 Y87.993
G1 X51.434 Y87.965
G1 X48.351 Y86.185
G1 X48.184 Y86.120
G1 X48.005 Y86.108
G1 X46.203 Y86.266
G1 X46.023 Y86.343
G1 X45.901 Y86.548
G1 X45.924 Y86.785
G1 X46.056 Y86.932
G1 X52.361 Y90.572
G1 X52.547 Y90.815
G1 X52.514 Y91.065
G1 X52.314 Y91.218
G1 X52.011 Y91.178
G1 X45.706 Y87.538
G1 X45.513 Y87.497
G1 X45.296 Y87.596
G1 X45.179 Y87.803
G1 X45.203 Y87.998
G1 X45.967 Y89.638
G1 X46.067 Y89.787
G1 X46.207 Y89.899
G1 X49.290 Y91.679
G1 X49.365 Y91.755
G1 X49.384 Y91.825
G1 X49.365 Y91.896
G1 X49.314 Y91.947
G1 X49.243 Y91.966
G1 X49.140 Y91.939
G1 X47.249 Y90.847
G1 X47.056 Y90.807
G1 X46.839 Y90.905
G1 X46.722 Y91.113
G1 X46.746 Y91.308
G1 X47.464 Y92.847
G1 X47.474 Y93.076
G1 X47.355 Y93.205
G1 X47.180 Y93.213
G1 X47.011 Y93.058
G1 X46.293 Y91.519
G1 X46.159 Y91.376
G1 X45.924 Y91.332
G1 X45.709 Y91.435
G1 X45.617 Y91.608
G1 X45.238 Y93.758
G1 X45.192 Y93.855
G1 X45.133 Y93.897
G1 X45.060 Y93.903
G1 X44.994 Y93.873
G1 X44.952 Y93.813
G1 X44.942 Y93.706
G1 X45.560 Y90.200
G1 X45.564 Y90.021
G1 X45.514 Y89.849
G1 X44.047 Y86.704
G1 X43.948 Y86.554
G1 X43.808 Y86.442
G1 X38.085 Y83.138
G1 X37.892 Y83.097
G1 X37.675 Y83.196
G1 X37.558 Y83.403
G1 X37.582 Y83.598
G1 X38.684 Y85.963
G1 X38.784 Y86.112
G1 X38.924 Y86.224
G1 X43.046 Y88.604
G1 X43.122 Y88.680
G1 X43.141 Y88.750
G1 X43.122 Y88.821
G1 X43.070 Y88.873
G1 X42.999 Y88.891
G1 X42.896 Y88.864
G1 X39.966 Y87.172
G1 X39.774 Y87.132
G1 X39.556 Y87.230
G1 X39.440 Y87.438
G1 X39.463 Y87.633
G1 X40.882 Y90.676
G1 X40.982 Y90.825
G1 X41.121 Y90.937
G1 X44.204 Y92.717
G1 X44.280 Y92.792
G1 X44.299 Y92.863
G1 X44.280 Y92.934
G1 X44.228 Y92.985
G1 X44.158 Y93.004
G1 X44.054 Y92.977
G1 X42.163 Y91.885
G1 X41.971 Y91.844
G1 X41.754 Y91.943
G1 X41.637 Y92.150
G1 X41.661 Y92.345
G1 X42.378 Y93.884
G1 X42.388 Y94.114
G1 X42.270 Y94.243
G1 X42.094 Y94.251
G1 X41.925 Y94.096
G1 X41.208 Y92.557
G1 X41.073 Y92.413
G1 X40.839 Y92.369
G1 X40.624 Y92.473
G1 X40.532 Y92.646
G1 X40.152 Y94.796
G1 X40.107 Y94.893
G1 X40.047 Y94.935
G1 X39.975 Y94.941
G1 X39.908 Y94.910
G1 X39.866 Y94.851
G1 X39.857 Y94.744
G1 X40.475 Y91.238
G1 X40.479 Y91.059
G1 X40.429 Y90.887
G1 X39.010 Y87.844
G1 X38.876 Y87.701
G1 X38.641 Y87.657
G1 X38.427 Y87.760
G1 X38.334 Y87.933
G1 X37.746 Y91.265
G1 X37.701 Y91.362
G1 X37.641 Y91.404
G1 X37.569 Y91.410
G1 X37.502 Y91.379
G1 X37.460 Y91.320
G1 X37.451 Y91.213
G1 X38.278 Y86.525
G1 X38.281 Y86.346
G1 X38.231 Y86.174
G1 X36.426 Y82.304
G1 X36.327 Y82.154
G1 X36.187 Y82.042
G1 X33.900 Y80.722
G1 X28.850 Y83.637
G1 X28.850 Y86.278
G1 X28.877 Y86.455
G1 X28.957 Y86.616
G1 X31.406 Y90.115
G1 X31.530 Y90.244
G1 X31.687 Y90.330
G1 X36.160 Y91.958
G1 X36.248 Y92.020
G1 X36.279 Y92.086
G1 X36.272 Y92.159
G1 X36.230 Y92.219
G1 X36.164 Y92.249
G1 X36.057 Y92.240
G1 X32.878 Y91.083
G1 X32.682 Y91.077
G1 X32.485 Y91.211
G1 X32.406 Y91.436
G1 X32.463 Y91.624
G1 X34.389 Y94.374
G1 X34.513 Y94.504
G1 X34.670 Y94.590
G1 X38.015 Y95.807
G1 X38.103 Y95.869
G1 X38.134 Y95.935
G1 X38.127 Y96.008
G1 X38.085 Y96.068
G1 X38.019 Y96.099
G1 X37.912 Y96.089
G1 X35.861 Y95.343
G1 X35.664 Y95.336
G1 X35.468 Y95.471
G1 X35.389 Y95.696
G1 X35.446 Y95.883
G1 X36.420 Y97.274
G1 X36.469 Y97.498
G1 X36.375 Y97.646
G1 X36.203 Y97.684
G1 X36.010 Y97.561
G1 X35.036 Y96.170
G1 X34.879 Y96.052
G1 X34.641 Y96.050
G1 X34.447 Y96.189
G1 X34.386 Y96.375
G1 X34.386 Y98.559
G1 X34.358 Y98.662
G1 X34.306 Y98.714
G1 X34.236 Y98.733
G1 X34.165 Y98.714
G1 X34.113 Y98.662
G1 X34.086 Y98.559
G1 X34.086 Y94.999
G1 X34.058 Y94.822
G1 X33.979 Y94.661
G1 X32.061 Y91.922
G1 X31.924 Y91.793
G1 X31.658 Y91.790
G1 X31.464 Y91.929
G1 X31.403 Y92.116
G1 X31.403 Y95.499
G1 X31.375 Y95.603
G1 X31.324 Y95.654
G1 X31.253 Y95.673
G1 X31.218 Y95.664
G1 X31.183 Y95.654
G1 X31.131 Y95.603
G1 X31.103 Y95.499
G1 X31.103 Y90.739
G1 X31.076 Y90.562
G1 X30.997 Y90.401
G1 X29.500 Y88.264
G1 X29.343 Y88.146
G1 X29.105 Y88.144
G1 X28.911 Y88.283
G1 X28.850 Y88.469
G1 X28.850 Y95.078
G1 X28.877 Y95.255
G1 X28.957 Y95.416
G1 X30.947 Y98.259
G1 X31.071 Y98.389
G1 X31.228 Y98.475
G1 X34.573 Y99.692
G1 X34.661 Y99.754
G1 X34.692 Y99.820
G1 X34.686 Y99.893
G1 X34.644 Y99.953
G1 X34.578 Y99.984
G1 X34.471 Y99.974
G1 X32.419 Y99.228
G1 X32.223 Y99.221
G1 X32.026 Y99.356
G1 X31.947 Y99.581
G1 X32.004 Y99.769
G1 X32.978 Y101.160
G1 X33.028 Y101.383
G1 X32.933 Y101.532
G1 X32.762 Y101.570
G1 X32.569 Y101.446
G1 X31.602 Y100.067
G1 X31.465 Y99.938
G1 X31.199 Y99.935
G1 X31.005 Y100.074
G1 X30.944 Y100.260
G1 X30.944 Y102.444
G1 X30.917 Y102.547
G1 X30.865 Y102.599
G1 X30.794 Y102.618
G1 X30.724 Y102.599
G1 X30.672 Y102.547
G1 X30.644 Y102.444
G1 X30.644 Y98.884
G1 X30.617 Y98.707
G1 X30.538 Y98.546
G1 X29.500 Y97.064
G1 X29.343 Y96.946
G1 X29.105 Y96.944
G1 X28.911 Y97.083
G1 X28.850 Y97.269
G1 X28.839 Y105.070
G1 X28.500 Y104.929
G1 X28.161 Y105.070
G1 X28.150 Y97.269
G1 X28.089 Y97.083
G1 X27.895 Y96.944
G1 X27.657 Y96.946
G1 X27.500 Y97.064
G1 X26.462 Y98.546
G1 X26.383 Y98.707
G1 X26.356 Y98.884
G1 X26.356 Y102.444
G1 X26.328 Y102.547
G1 X26.276 Y102.599
G1 X26.206 Y102.618
G1 X26.135 Y102.599
G1 X26.083 Y102.547
G1 X26.056 Y102.444
G1 X26.056 Y100.260
G1 X25.995 Y100.074
G1 X25.801 Y99.935
G1 X25.563 Y99.937
G1 X25.405 Y100.055
G1 X24.431 Y101.446
G1 X24.238 Y101.570
G1 X24.067 Y101.532
G1 X23.972 Y101.383
G1 X24.022 Y101.160
G1 X24.996 Y99.769
G1 X25.053 Y99.581
G1 X24.974 Y99.356
G1 X24.777 Y99.221
G1 X24.581 Y99.228
G1 X22.529 Y99.974
G1 X22.422 Y99.984
G1 X22.356 Y99.953
G1 X22.314 Y99.893
G1 X22.308 Y99.820
G1 X22.339 Y99.754
G1 X22.427 Y99.692
G1 X25.772 Y98.475
G1 X25.929 Y98.389
G1 X26.053 Y98.259
G1 X28.043 Y95.416
G1 X28.123 Y95.255
G1 X28.150 Y95.078
G1 X28.150 Y88.469
G1 X28.089 Y88.283
G1 X27.895 Y88.144
G1 X27.657 Y88.146
G1 X27.500 Y88.264
G1 X26.003 Y90.401
G1 X25.924 Y90.562
G1 X25.897 Y90.739
G1 X25.897 Y95.499
G1 X25.869 Y95.603
G1 X25.817 Y95.654
G1 X25.747 Y95.673
G1 X25.676 Y95.654
G1 X25.625 Y95.603
G1 X25.597 Y95.499
G1 X25.597 Y92.116
G1 X25.536 Y91.929
G1 X25.342 Y91.790
G1 X25.104 Y91.793
G1 X24.947 Y91.911
G1 X23.021 Y94.661
G1 X22.942 Y94.822
G1 X22.914 Y94.999
G1 X22.914 Y98.559
G1 X22.886 Y98.662
G1 X22.835 Y98.714
G1 X22.764 Y98.733
G1 X22.694 Y98.714
G1 X22.642 Y98.662
G1 X22.614 Y98.559
G1 X22.614 Y96.375
G1 X22.553 Y96.189
G1 X22.359 Y96.050
G1 X22.121 Y96.052
G1 X21.964 Y96.170
G1 X20.990 Y97.561
G1 X20.797 Y97.684
G1 X20.625 Y97.646
G1 X20.531 Y97.498
G1 X20.580 Y97.274
G1 X21.554 Y95.883
G1 X21.611 Y95.696
G1 X21.532 Y95.471
G1 X21.336 Y95.336
G1 X21.139 Y95.343
G1 X19.088 Y96.089
G1 X18.981 Y96.099
G1 X18.915 Y96.068
G1 X18.873 Y96.008
G1 X18.866 Y95.935
G1 X18.897 Y95.869
G1 X18.985 Y95.807
G1 X22.330 Y94.590
G1 X22.487 Y94.504
G1 X22.611 Y94.374
G1 X24.537 Y91.624
G1 X24.594 Y91.436
G1 X24.515 Y91.211
G1 X24.318 Y91.077
G1 X24.122 Y91.083
G1 X20.943 Y92.240
G1 X20.836 Y92.249
G1 X20.770 Y92.219
G1 X20.728 Y92.159
G1 X20.721 Y92.086
G1 X20.752 Y92.020
G1 X20.840 Y91.958
G1 X25.313 Y90.330
G1 X25.470 Y90.244
G1 X25.594 Y90.115
G1 X28.043 Y86.616
G1 X28.123 Y86.455
G1 X28.150 Y86.278
G1 X28.150 Y83.637
G1 X23.100 Y80.722
G1 X20.813 Y82.042
G1 X20.673 Y82.154
G1 X20.574 Y82.304
G1 X18.769 Y86.174
G1 X18.719 Y86.346
G1 X18.722 Y86.525
G1 X19.549 Y91.213
G1 X19.540 Y91.320
G1 X19.498 Y91.379
G1 X19.431 Y91.410
G1 X19.359 Y91.404
G1 X19.299 Y91.362
G1 X19.254 Y91.265
G1 X18.666 Y87.933
G1 X18.573 Y87.760
G1 X18.359 Y87.657
G1 X18.124 Y87.701
G1 X17.990 Y87.844
G1 X16.571 Y90.887
G1 X16.521 Y91.059
G1 X16.525 Y91.238
G1 X17.143 Y94.744
G1 X17.134 Y94.851
G1 X17.092 Y94.910
G1 X17.025 Y94.941
G1 X16.953 Y94.935
G1 X16.893 Y94.893
G1 X16.848 Y94.796
G1 X16.468 Y92.646
G1 X16.376 Y92.473
G1 X16.161 Y92.369
G1 X15.927 Y92.413
G1 X15.792 Y92.557
G1 X15.075 Y94.096
G1 X14.906 Y94.251
G1 X14.730 Y94.243
G1 X14.612 Y94.114
G1 X14.622 Y93.884
G1 X15.339 Y92.345
G1 X15.363 Y92.150
G1 X15.246 Y91.943
G1 X15.029 Y91.844
G1 X14.837 Y91.885
G1 X12.946 Y92.977
G1 X12.842 Y93.004
G1 X12.772 Y92.985
G1 X12.720 Y92.934
G1 X12.701 Y92.863
G1 X12.720 Y92.792
G1 X12.796 Y92.717
G1 X15.879 Y90.937
G1 X16.018 Y90.825
G1 X16.118 Y90.676
G1 X17.537 Y87.633
G1 X17.560 Y87.438
G1 X17.444 Y87.230
G1 X17.226 Y87.132
G1 X17.034 Y87.172
G1 X14.104 Y88.864
G1 X14.001 Y88.891
G1 X13.930 Y88.873
G1 X13.878 Y88.821
G1 X13.859 Y88.750
G1 X13.878 Y88.680
G1 X13.954 Y88.604
G1 X18.076 Y86.224
G1 X18.216 Y86.112
G1 X18.316 Y85.963
G1 X19.418 Y83.598
G1 X19.442 Y83.403
G1 X19.325 Y83.196
G1 X19.108 Y83.097
G1 X18.915 Y83.138
G1 X13.192 Y86.442
G1 X13.052 Y86.554
G1 X12.953 Y86.704
G1 X11.486 Y89.849
G1 X11.436 Y90.021
G1 X11.440 Y90.200
G1 X12.058 Y93.706
G1 X12.048 Y93.813
G1 X12.006 Y93.873
G1 X11.940 Y93.903
G1 X11.867 Y93.897
G1 X11.808 Y93.855
G1 X11.762 Y93.758
G1 X11.383 Y91.608
G1 X11.291 Y91.435
G1 X11.076 Y91.332
G1 X10.833 Y91.377
G1 X10.705 Y91.523
G1 X9.989 Y93.058
G1 X9.820 Y93.213
G1 X9.645 Y93.205
G1 X9.526 Y93.076
G1 X9.536 Y92.847
G1 X10.254 Y91.308
G1 X10.278 Y91.113
G1 X10.161 Y90.905
G1 X9.944 Y90.807
G1 X9.751 Y90.847
G1 X7.860 Y91.939
G1 X7.757 Y91.966
G1 X7.686 Y91.947
G1 X7.635 Y91.896
G1 X7.616 Y91.825
G1 X7.635 Y91.755
G1 X7.710 Y91.679
G1 X10.793 Y89.899
G1 X10.933 Y89.787
G1 X11.033 Y89.638
G1 X11.797 Y87.998
G1 X11.821 Y87.803
G1 X11.704 Y87.596
G1 X11.487 Y87.497
G1 X11.294 Y87.538
G1 X4.989 Y91.178
G1 X4.686 Y91.218
G1 X4.486 Y91.065
G1 X4.453 Y90.815
G1 X4.639 Y90.572
G1 X10.944 Y86.932
G1 X11.076 Y86.785
G1 X11.099 Y86.548
G1 X10.977 Y86.343
G1 X10.797 Y86.266
G1 X8.995 Y86.108
G1 X8.816 Y86.120
G1 X8.649 Y86.185
G1 X5.566 Y87.965
G1 X5.463 Y87.993
G1 X5.392 Y87.974
G1 X5.340 Y87.922
G1 X5.321 Y87.851
G1 X5.340 Y87.781
G1 X5.416 Y87.705
G1 X7.307 Y86.613
G1 X7.438 Y86.467
G1 X7.461 Y86.230
G1 X7.340 Y86.025
G1 X7.159 Y85.948
G1 X5.468 Y85.800
G1 X5.264 Y85.694
G1 X5.212 Y85.526
G1 X5.293 Y85.371
G1 X5.511 Y85.302
G1 X7.203 Y85.450
G1 X7.394 Y85.405
G1 X7.549 Y85.224
G1 X7.568 Y84.987
G1 X7.464 Y84.820
G1 X5.791 Y83.416
G1 X5.730 Y83.329
G1 X5.724 Y83.256
G1 X5.754 Y83.189
G1 X5.814 Y83.148
G1 X5.887 Y83.141
G1 X5.984 Y83.186
G1 X8.711 Y85.475
G1 X8.864 Y85.568
G1 X9.038 Y85.610
G1 X12.496 Y85.913
G1 X12.675 Y85.901
G1 X12.842 Y85.836
G1 X18.565 Y82.532
G1 X18.697 Y82.385
G1 X18.720 Y82.148
G1 X18.599 Y81.943
G1 X18.418 Y81.866
G1 X15.819 Y81.639
G1 X15.640 Y81.650
G1 X15.473 Y81.715
G1 X11.351 Y84.095
G1 X11.247 Y84.123
G1 X11.177 Y84.104
G1 X11.125 Y84.052
G1 X11.106 Y83.982
G1 X11.125 Y83.911
G1 X11.201 Y83.835
G1 X14.131 Y82.144
G1 X14.262 Y81.997
G1 X14.286 Y81.760
G1 X14.164 Y81.555
G1 X13.984 Y81.478
G1 X10.639 Y81.185
G1 X10.460 Y81.197
G1 X10.293 Y81.262
G1 X7.210 Y83.042
G1 X7.107 Y83.070
G1 X7.036 Y83.051
G1 X6.984 Y82.999
G1 X6.965 Y82.928
G1 X6.984 Y82.858
G1 X7.060 Y82.782
G1 X8.951 Y81.690
G1 X9.082 Y81.544
G1 X9.105 Y81.307
G1 X8.984 Y81.102
G1 X8.803 Y81.025
G1 X7.112 Y80.877
G1 X6.908 Y80.771
G1 X6.855 Y80.603
G1 X6.936 Y80.448
G1 X7.155 Y80.379
G1 X8.847 Y80.527
G1 X9.038 Y80.482
G1 X9.193 Y80.301
G1 X9.212 Y80.064
G1 X9.108 Y79.897
G1 X7.435 Y78.493
G1 X7.374 Y78.406
G1 X7.367 Y78.333
G1 X7.398 Y78.267
G1 X7.458 Y78.225
G1 X7.531 Y78.218
G1 X7.628 Y78.264
G1 X10.355 Y80.552
G1 X10.508 Y80.645
G1 X10.682 Y80.687
G1 X14.027 Y80.980
G1 X14.218 Y80.935
G1 X14.374 Y80.754
G1 X14.392 Y80.517
G1 X14.288 Y80.350
G1 X11.696 Y78.175
G1 X11.635 Y78.087
G1 X11.628 Y78.015
G1 X11.659 Y77.948
G1 X11.719 Y77.906
G1 X11.792 Y77.900
G1 X11.889 Y77.945
G1 X15.535 Y81.005
G1 X15.688 Y81.098
G1 X15.863 Y81.140
G1 X20.117 Y81.513
G1 X20.296 Y81.501
G1 X20.463 Y81.436
G1 X22.750 Y80.116
G1 X22.750 Y74.284
G1 X20.463 Y72.964
G1 X20.296 Y72.899
G1 X20.117 Y72.887
G1 X15.863 Y73.260
G1 X15.688 Y73.302
G1 X15.535 Y73.395
G1 X11.889 Y76.455
G1 X11.792 Y76.500
G1 X11.719 Y76.494
G1 X11.659 Y76.452
G1 X11.628 Y76.385
G1 X11.635 Y76.313
G1 X11.696 Y76.225
G1 X14.288 Y74.050
G1 X14.392 Y73.883
G1 X14.374 Y73.646
G1 X14.218 Y73.465
G1 X14.027 Y73.420
G1 X10.682 Y73.713
G1 X10.508 Y73.755
G1 X10.355 Y73.848
G1 X7.628 Y76.136
G1 X7.531 Y76.182
G1 X7.458 Y76.175
G1 X7.398 Y76.133
G1 X7.367 Y76.067
G1 X7.374 Y75.994
G1 X7.435 Y75.907
G1 X9.108 Y74.503
G1 X9.212 Y74.336
G1 X9.193 Y74.099
G1 X9.038 Y73.918
G1 X8.847 Y73.873
G1 X7.155 Y74.021
G1 X6.936 Y73.952
G1 X6.855 Y73.797
G1 X6.908 Y73.629
G1 X7.112 Y73.523
G1 X8.803 Y73.375
G1 X8.984 Y73.298
G1 X9.105 Y73.093
G1 X9.082 Y72.856
G1 X8.951 Y72.710
G1 X7.060 Y71.618
G1 X6.984 Y71.542
G1 X6.965 Y71.472
G1 X6.984 Y71.401
G1 X7.036 Y71.349
G1 X7.107 Y71.330
G1 X7.210 Y71.358
G1 X10.293 Y73.138
G1 X10.460 Y73.203
G1 X10.639 Y73.215
G1 X13.984 Y72.922
G1 X14.164 Y72.845
G1 X14.286 Y72.640
G1 X14.262 Y72.403
G1 X14.131 Y72.256
G1 X11.201 Y70.565
G1 X11.125 Y70.489
G1 X11.106 Y70.418
G1 X11.125 Y70.348
G1 X11.177 Y70.296
G1 X11.247 Y70.277
G1 X11.351 Y70.305
G1 X15.473 Y72.685
G1 X15.640 Y72.750
G1 X15.819 Y72.761
G1 X18.418 Y72.534
G1 X18.599 Y72.457
G1 X18.720 Y72.252
G1 X18.697 Y72.015
G1 X18.565 Y71.868
G1 X12.842 Y68.564
G1 X12.675 Y68.499
G1 X12.496 Y68.487
G1 X9.039 Y68.790
G1 X8.864 Y68.832
G1 X8.711 Y68.925
G1 X5.984 Y71.214
G1 X5.887 Y71.259
G1 X5.814 Y71.252
G1 X5.754 Y71.211
G1 X5.724 Y71.144
G1 X5.730 Y71.071
G1 X5.791 Y70.984
G1 X7.464 Y69.580
G1 X7.568 Y69.413
G1 X7.549 Y69.176
G1 X7.394 Y68.995
G1 X7.203 Y68.950
G1 X5.511 Y69.098
G1 X5.293 Y69.029
G1 X5.212 Y68.874
G1 X5.264 Y68.706
G1 X5.468 Y68.600
G1 X7.159 Y68.452
G1 X7.340 Y68.375
G1 X7.461 Y68.170
G1 X7.438 Y67.933
G1 X7.307 Y67.787
G1 X5.416 Y66.695
G1 X5.340 Y66.619
G1 X5.321 Y66.549
G1 X5.340 Y66.478
G1 X5.392 Y66.426
G1 X5.463 Y66.407
G1 X5.566 Y66.435
G1 X8.649 Y68.215
G1 X8.816 Y68.280
G1 X8.995 Y68.292
G1 X10.797 Y68.134
G1 X10.977 Y68.057
G1 X11.099 Y67.852
G1 X11.076 Y67.615
G1 X10.944 Y67.468
G1 X4.639 Y63.828
G1 X4.453 Y63.585
G1 X4.486 Y63.335
G1 X4.686 Y63.182
G1 X4.989 Y63.222
G1 X11.294 Y66.862
G1 X11.487 Y66.903
G1 X11.704 Y66.804
G1 X11.821 Y66.597
G1 X11.797 Y66.402
G1 X11.033 Y64.762
G1 X10.933 Y64.613
G1 X10.793 Y64.501
G1 X7.710 Y62.721
G1 X7.635 Y62.645
G1 X7.616 Y62.575
G1 X7.635 Y62.504
G1 X7.686 Y62.453
G1 X7.757 Y62.434
G1 X7.860 Y62.461
G1 X9.751 Y63.553
G1 X9.944 Y63.593
G1 X10.161 Y63.495
G1 X10.278 Y63.287
G1 X10.254 Y63.092
G1 X9.536 Y61.553
G1 X9.526 Y61.324
G1 X9.645 Y61.195
G1 X9.820 Y61.187
G1 X9.989 Y61.342
G1 X10.707 Y62.881
G1 X10.841 Y63.024
G1 X11.076 Y63.068
G1 X11.291 Y62.965
G1 X11.383 Y62.792
G1 X11.762 Y60.642
G1 X11.808 Y60.545
G1 X11.867 Y60.503
G1 X11.940 Y60.497
G1 X12.006 Y60.527
G1 X12.048 Y60.587
G1 X12.058 Y60.694
G1 X11.440 Y64.200
G1 X11.436 Y64.379
G1 X11.486 Y64.551
G1 X12.953 Y67.696
G1 X13.052 Y67.846
G1 X13.192 Y67.958
G1 X18.915 Y71.262
G1 X19.108 Y71.303
G1 X19.325 Y71.204
G1 X19.442 Y70.997
G1 X19.418 Y70.802
G1 X18.316 Y68.437
G1 X18.216 Y68.288
G1 X18.076 Y68.176
G1 X13.954 Y65.796
G1 X13.878 Y65.720
G1 X13.859 Y65.650
G1 X13.878 Y65.579
G1 X13.930 Y65.527
G1 X14.001 Y65.509
G1 X14.104 Y65.536
G1 X17.034 Y67.228
G1 X17.226 Y67.268
G1 X17.444 Y67.170
G1 X17.560 Y66.962
G1 X17.537 Y66.767
G1 X16.118 Y63.724
G1 X16.018 Y63.575
G1 X15.879 Y63.463
G1 X12.796 Y61.683
G1 X12.720 Y61.608
G1 X12.701 Y61.537
G1 X12.720 Y61.466
G1 X12.772 Y61.415
G1 X12.842 Y61.396
G1 X12.946 Y61.423
G1 X14.837 Y62.515
G1 X15.029 Y62.556
G1 X15.246 Y62.457
G1 X15.363 Y62.250
G1 X15.339 Y62.055
G1 X14.622 Y60.516
G1 X14.612 Y60.286
G1 X14.730 Y60.157
G1 X14.906 Y60.149
G1 X15.075 Y60.304
G1 X15.792 Y61.843
G1 X15.927 Y61.987
G1 X16.161 Y62.031
G1 X16.376 Y61.927
G1 X16.468 Y61.754
G1 X16.848 Y59.604
G1 X16.893 Y59.507
G1 X16.953 Y59.465
G1 X17.025 Y59.459
G1 X17.092 Y59.490
G1 X17.134 Y59.549
G1 X17.143 Y59.656
G1 X16.525 Y63.162
G1 X16.521 Y63.341
G1 X16.571 Y63.513
G1 X17.990 Y66.556
G1 X18.124 Y66.699
G1 X18.359 Y66.743
G1 X18.573 Y66.640
G1 X18.666 Y66.467
G1 X19.254 Y63.135
G1 X19.299 Y63.038
G1 X19.359 Y62.996
G1 X19.431 Y62.990
G1 X19.498 Y63.021
G1 X19.540 Y63.080
G1 X19.549 Y63.187
G1 X18.722 Y67.875
G1 X18.719 Y68.054
G1 X18.769 Y68.226
G1 X20.574 Y72.096
G1 X20.673 Y72.246
G1 X20.813 Y72.358
G1 X23.100 Y73.678
G1 X28.150 Y70.763
G1 X28.150 Y68.122
G1 X28.123 Y67.945
G1 X28.043 Y67.784
G1 X25.594 Y64.285
G1 X25.470 Y64.156
G1 X25.313 Y64.070
G1 X20.840 Y62.442
G1 X20.752 Y62.380
G1 X20.721 Y62.314
G1 X20.728 Y62.241
G1 X20.770 Y62.181
G1 X20.836 Y62.151
G1 X20.943 Y62.160
G1 X24.122 Y63.317
G1 X24.318 Y63.323
G1 X24.515 Y63.189
G1 X24.594 Y62.964
G1 X24.537 Y62.776
G1 X22.611 Y60.026
G1 X22.487 Y59.896
G1 X22.330 Y59.810
G1 X18.985 Y58.593
G1 X18.897 Y58.531
G1 X18.866 Y58.465
G1 X18.873 Y58.392
G1 X18.915 Y58.332
G1 X18.981 Y58.301
G1 X19.088 Y58.311
G1 X21.139 Y59.057
G1 X21.336 Y59.064
G1 X21.532 Y58.929
G1 X21.611 Y58.704
G1 X21.554 Y58.517
G1 X20.580 Y57.126
G1 X20.531 Y56.902
G1 X20.625 Y56.754
G1 X20.797 Y56.716
G1 X20.990 Y56.839
G1 X21.964 Y58.230
G1 X22.121 Y58.348
G1 X22.359 Y58.350
G1 X22.553 Y58.211
G1 X22.614 Y58.025
G1 X22.614 Y55.841
G1 X22.642 Y55.738
G1 X22.694 Y55.686
G1 X22.764 Y55.667
G1 X22.835 Y55.686
G1 X22.886 Y55.738
G1 X22.914 Y55.841
G1 X22.914 Y59.401
G1 X22.942 Y59.578
G1 X23.021 Y59.739
G1 X24.947 Y62.489
G1 X25.104 Y62.607
G1 X25.342 Y62.610
G1 X25.536 Y62.471
G1 X25.597 Y62.284
G1 X25.597 Y58.901
G1 X25.625 Y58.797
G1 X25.676 Y58.746
G1 X25.747 Y58.727
G1 X25.817 Y58.746
G1 X25.869 Y58.797
G1 X25.897 Y58.901
G1 X25.897 Y63.661
G1 X25.924 Y63.838
G1 X26.003 Y63.999
G1 X27.500 Y66.136
G1 X27.657 Y66.254
G1 X27.895 Y66.256
G1 X28.089 Y66.117
G1 X28.150 Y65.931
G1 X28.150 Y59.322
G1 X28.123 Y59.145
G1 X28.043 Y58.984
G1 X26.053 Y56.141
G1 X25.929 Y56.011
G1 X25.772 Y55.925
G1 X22.427 Y54.708
G1 X22.339 Y54.646
G1 X22.308 Y54.580
G1 X22.314 Y54.507
G1 X22.356 Y54.447
G1 X22.422 Y54.416
G1 X22.529 Y54.426
G1 X24.581 Y55.172
G1 X24.777 Y55.179
G1 X24.974 Y55.044
G1 X25.053 Y54.819
G1 X24.996 Y54.631
G1 X24.022 Y53.240
G1 X23.972 Y53.017
G1 X24.067 Y52.868
G1 X24.238 Y52.830
G1 X24.431 Y52.954
G1 X25.405 Y54.345
G1 X25.563 Y54.463
G1 X25.801 Y54.465
G1 X25.995 Y54.326
G1 X26.056 Y54.140
G1 X26.056 Y51.956
G1 X26.083 Y51.853
G1 X26.135 Y51.801
G1 X26.206 Y51.782
G1 X26.276 Y51.801
G1 X26.328 Y51.853
G1 X26.356 Y51.956
G1 X26.356 Y55.516
G1 X26.383 Y55.693
G1 X26.462 Y55.854
G1 X27.500 Y57.336
G1 X27.657 Y57.454
G1 X27.895 Y57.456
G1 X28.089 Y57.317
G1 X28.150 Y57.131
G1 X28.150 Y49.850
G1 X28.267 Y49.567
G1 X28.500 Y49.471
G1 X28.733 Y49.567
G1 X28.850 Y49.850
G1 X28.850 Y57.131
G1 X28.911 Y57.317
G1 X29.105 Y57.456
G1 X29.343 Y57.454
G1 X29.500 Y57.336
G1 X30.538 Y55.854
G1 X30.617 Y55.693
G1 X30.644 Y55.516
G1 X30.644 Y51.956
G1 X30.672 Y51.853
G1 X30.724 Y51.801
G1 X30.794 Y51.782
G1 X30.865 Y51.801
G1 X30.917 Y51.853
G1 X30.944 Y51.956
G1 X30.944 Y54.140
G1 X31.005 Y54.326
G1 X31.199 Y54.465
G1 X31.437 Y54.463
G1 X31.595 Y54.345
G1 X32.569 Y52.954
G1 X32.762 Y52.830
G1 X32.933 Y52.868
G1 X33.028 Y53.017
G1 X32.978 Y53.240
G1 X32.004 Y54.631
G1 X31.947 Y54.819
G1 X32.026 Y55.044
G1 X32.223 Y55.179
G1 X32.419 Y55.172
G1 X34.471 Y54.426
G1 X34.578 Y54.416
G1 X34.644 Y54.447
G1 X34.686 Y54.507
G1 X34.692 Y54.580
G1 X34.661 Y54.646
G1 X34.573 Y54.708
G1 X31.228 Y55.925
G1 X31.071 Y56.011
G1 X30.947 Y56.141
G1 X28.957 Y58.984
G1 X28.877 Y59.145
G1 X28.850 Y59.322
G1 X28.850 Y65.931
G1 X28.911 Y66.117
G1 X29.105 Y66.256
G1 X29.343 Y66.254
G1 X29.500 Y66.136
G1 X30.997 Y63.999
G1 X31.076 Y63.838
G1 X31.103 Y63.661
G1 X31.103 Y58.901
G1 X31.131 Y58.797
G1 X31.183 Y58.746
G1 X31.253 Y58.727
G1 X31.324 Y58.746
G1 X31.375 Y58.797
G1 X31.403 Y58.901
G1 X31.403 Y62.284
G1 X31.464 Y62.471
G1 X31.658 Y62.610
G1 X31.924 Y62.607
G1 X32.061 Y62.478
G1 X33.979 Y59.739
G1 X34.058 Y59.578
G1 X34.086 Y59.401
G1 X34.086 Y55.841
G1 X34.113 Y55.738
G1 X34.165 Y55.686
G1 X34.236 Y55.667
G1 X34.306 Y55.686
G1 X34.358 Y55.738
G1 X34.386 Y55.841
G1 X34.386 Y58.025
G1 X34.447 Y58.211
G1 X34.641 Y58.350
G1 X34.879 Y58.348
G1 X35.036 Y58.230
G1 X36.010 Y56.839
G1 X36.203 Y56.716
G1 X36.375 Y56.754
G1 X36.469 Y56.902
G1 X36.420 Y57.126
G1 X35.446 Y58.517
G1 X35.389 Y58.704
G1 X35.468 Y58.929
G1 X35.664 Y59.064
G1 X35.861 Y59.057
G1 X37.912 Y58.311
G1 X38.019 Y58.301
G1 X38.085 Y58.332
G1 X38.127 Y58.392
G1 X38.134 Y58.465
G1 X38.103 Y58.531
G1 X38.015 Y58.593
G1 X34.670 Y59.810
G1 X34.513 Y59.896
G1 X34.389 Y60.026
G1 X32.463 Y62.776
G1 X32.406 Y62.964
G1 X32.485 Y63.189
G1 X32.682 Y63.323
G1 X32.878 Y63.317
G1 X36.057 Y62.160
G1 X36.164 Y62.151
G1 X36.230 Y62.181
G1 X36.272 Y62.241
G1 X36.279 Y62.314
G1 X36.248 Y62.380
G1 X36.160 Y62.442
G1 X31.687 Y64.070
G1 X31.530 Y64.156
G1 X31.406 Y64.285
G1 X28.957 Y67.784
G1 X28.877 Y67.945
G1 X28.850 Y68.122
G1 X28.850 Y70.763
G1 X33.900 Y73.678
G1 X36.187 Y72.358
G1 X36.327 Y72.246
G1 X36.426 Y72.096
G1 X38.231 Y68.226
G1 X38.281 Y68.054
G1 X38.278 Y67.875
G1 X37.451 Y63.187
G1 X37.460 Y63.080
G1 X37.502 Y63.021
G1 X37.569 Y62.990
G1 X37.641 Y62.996
G1 X37.701 Y63.038
G1 X37.746 Y63.135
G1 X38.334 Y66.467
G1 X38.427 Y66.640
G1 X38.641 Y66.743
G1 X38.876 Y66.699
G1 X39.010 Y66.556
G1 X40.429 Y63.513
G1 X40.479 Y63.341
G1 X40.475 Y63.162
G1 X39.857 Y59.656
G1 X39.866 Y59.549
G1 X39.908 Y59.490
G1 X39.975 Y59.459
G1 X40.047 Y59.465
G1 X40.107 Y59.507
G1 X40.152 Y59.604
G1 X40.532 Y61.754
G1 X40.624 Y61.927
G1 X40.839 Y62.031
G1 X41.073 Y61.987
G1 X41.208 Y61.843
G1 X41.925 Y60.304
G1 X42.094 Y60.149
G1 X42.270 Y60.157
G1 X42.388 Y60.286
G1 X42.378 Y60.516
G1 X41.661 Y62.055
G1 X41.637 Y62.250
G1 X41.754 Y62.457
G1 X41.971 Y62.556
G1 X42.163 Y62.515
G1 X44.054 Y61.423
G1 X44.158 Y61.396
G1 X44.228 Y61.415
G1 X44.280 Y61.466
G1 X44.299 Y61.537
G1 X44.280 Y61.608
G1 X44.204 Y61.683
G1 X41.121 Y63.463
G1 X40.982 Y63.575
G1 X40.882 Y63.724
G1 X39.463 Y66.767
G1 X39.440 Y66.962
G1 X39.556 Y67.170
G1 X39.774 Y67.268
G1 X39.966 Y67.228
G1 X42.896 Y65.536
G1 X42.999 Y65.509
G1 X43.070 Y65.527
G1 X43.122 Y65.579
G1 X43.141 Y65.650
G1 X43.122 Y65.720
G1 X43.046 Y65.796
G1 X38.924 Y68.176
G1 X38.784 Y68.288
G1 X38.684 Y68.437
G1 X37.582 Y70.802
G1 X37.558 Y70.997
G1 X37.675 Y71.204
G1 X37.892 Y71.303
G1 X38.085 Y71.262
G1 X43.808 Y67.958
G1 X43.948 Y67.846
G1 X44.047 Y67.696
G1 X45.514 Y64.551
G1 X45.564 Y64.379
G1 X45.560 Y64.200
G1 X44.942 Y60.694
G1 X44.952 Y60.587
G1 X44.994 Y60.527
G1 X45.060 Y60.497
G1 X45.133 Y60.503
G1 X45.192 Y60.545
G1 X45.238 Y60.642
G1 X45.617 Y62.792
G1 X45.709 Y62.965
G1 X45.924 Y63.068
G1 X46.159 Y63.024
G1 X46.293 Y62.881
G1 X47.011 Y61.342
G1 X47.180 Y61.187
G1 X47.355 Y61.195
G1 X47.474 Y61.324
G1 X47.464 Y61.553
G1 X46.746 Y63.092
G1 X46.723 Y63.287
G1 X46.839 Y63.495
G1 X47.056 Y63.593
G1 X47.249 Y63.553
G1 X49.140 Y62.461
G1 X49.243 Y62.434
G1 X49.314 Y62.453
G1 X49.365 Y62.504
G1 X49.384 Y62.575
G1 X49.365 Y62.645
G1 X49.290 Y62.721
G1 X46.207 Y64.501
G1 X46.067 Y64.613
G1 X45.967 Y64.762
G1 X45.203 Y66.402
G1 X45.179 Y66.597
G1 X45.296 Y66.804
G1 X45.513 Y66.903
G1 X45.706 Y66.862
G1 X52.011 Y63.222
G1 X52.314 Y63.182
G1 X52.514 Y63.335
G1 X52.547 Y63.585
G1 X52.361 Y63.828
G1 X46.056 Y67.468
G1 X45.924 Y67.615
G1 X45.901 Y67.852
G1 X46.023 Y68.057
G1 X46.203 Y68.134
G1 X48.005 Y68.292
G1 X48.184 Y68.280
G1 X48.351 Y68.215
G1 X51.434 Y66.435
G1 X51.537 Y66.407
G1 X51.608 Y66.426
G1 X51.660 Y66.478
G1 X51.679 Y66.549
G1 X51.660 Y66.619
G1 X51.584 Y66.695
G1 X49.693 Y67.787
G1 X49.562 Y67.933
G1 X49.539 Y68.170
G1 X49.660 Y68.375
G1 X49.841 Y68.452
G1 X51.532 Y68.600
G1 X51.736 Y68.706
G1 X51.788 Y68.874
G1 X51.707 Y69.029
G1 X51.489 Y69.098
G1 X49.797 Y68.950
G1 X49.606 Y68.995
G1 X49.451 Y69.176
G1 X49.432 Y69.413
G1 X49.536 Y69.580
G1 X51.209 Y70.984
G1 X51.270 Y71.071
G1 X51.276 Y71.144
G1 X51.246 Y71.211
G1 X51.186 Y71.252
G1 X51.113 Y71.259
G1 X51.016 Y71.214
G1 X48.289 Y68.925
G1 X48.136 Y68.832
G1 X47.961 Y68.790
G1 X44.504 Y68.487
G1 X44.325 Y68.499
G1 X44.158 Y68.564
G1 X38.435 Y71.868
G1 X38.303 Y72.015
G1 X38.280 Y72.252
G1 X38.401 Y72.457
G1 X38.582 Y72.534
G1 X41.181 Y72.761
G1 X41.360 Y72.750
G1 X41.527 Y72.685
G1 X45.649 Y70.305
G1 X45.752 Y70.277
G1 X45.823 Y70.296
G1 X45.875 Y70.348
G1 X45.894 Y70.418
G1 X45.875 Y70.489
G1 X45.799 Y70.565
G1 X42.869 Y72.256
G1 X42.738 Y72.403
G1 X42.714 Y72.640
G1 X42.836 Y72.845
G1 X43.016 Y72.922
G1 X46.361 Y73.215
G1 X46.540 Y73.203
G1 X46.707 Y73.138
G1 X49.790 Y71.358
G1 X49.893 Y71.330
G1 X49.964 Y71.349
G1 X50.016 Y71.401
G1 X50.035 Y71.472
G1 X50.016 Y71.542
G1 X49.940 Y71.618
G1 X48.049 Y72.710
G1 X47.918 Y72.856
G1 X47.902 Y73.018
G1 X47.737 Y73.272 F7800.000
G1 0.00000 F2400.00000
G1 X31.324 Y79.112 F7800.000
G1 2.00000 F2400.00000
G1 X30.069 Y74.785 F900.000
G1 X29.944 Y74.479
G1 X29.691 Y74.170
G1 X30.747 Y74.170
G1 X30.585 Y74.555
G1 X30.616 Y74.789
G1 X32.014 Y79.511
G1 X32.241 Y79.950
G1 X31.281 Y79.943
G1 X30.865 Y79.328
G1 X31.256 Y79.144
G1 X31.796 Y78.947 F7800.000
G1 0.00000 F2400.00000
G1 X28.005 Y75.126 F7800.000
G1 2.00000 F2400.00000
G1 X30.721 Y79.120 F1800.000
G1 0.00000 F2400.00000
G1 X26.227 Y78.907 F7800.000
G1 2.00000 F2400.00000
G1 X25.315 Y75.757 F1800.000
G1 X25.328 Y75.248
G1 0.00000 F2400.00000
G1 X26.791 Y79.109 F7800.000
G1 2.00000 F2400.00000
G1 X27.352 Y74.185 F900.000
G1 X27.787 Y74.823
G1 X27.222 Y79.951
G1 X26.077 Y79.951
G1 X26.419 Y79.591
G1 X26.293 Y79.152
G1 X26.716 Y79.115
G1 X27.291 Y79.132 F7800.000
G1 0.00000 F2400.00000
G1 X27.911 Y104.880 F7800.000
G1 2.00000 F2400.00000
G1 X27.403 Y105.588 F1800.000
G1 X27.258 Y106.100
G1 X27.241 Y106.307
G1 X27.256 Y106.433
G1 X27.544 Y107.010
G1 X27.682 Y107.186
G1 X28.500 Y107.491
G1 X29.318 Y107.186
G1 X29.456 Y107.010
G1 X29.744 Y106.433
G1 X29.759 Y106.307
G1 X29.742 Y106.100
G1 X29.597 Y105.588
G1 X29.089 Y104.880
G1 X28.500 Y104.684 F7800.000
G1 X28.500 Y97.099 F1200.000
G1 X28.396 Y96.415 F7800.000
G1 X28.619 Y96.192 F1200.000
G1 X28.655 Y95.351 F7800.000
G1 X28.551 Y95.107 F1200.000
G1 X28.500 Y95.035
G1 X28.500 Y88.299
G1 X28.396 Y87.615 F7800.000
G1 X28.619 Y87.392 F1200.000
G1 X28.655 Y86.551 F7800.000
G1 X28.551 Y86.307 F1200.000
G1 X28.500 Y86.235
G1 X28.500 Y83.814
G1 0.00000 F2400.00000
G1 X26.639 Y79.537 F7800.000
G1 2.00000 F2400.00000
G1 X26.844 Y79.528 F1200.000
G1 X27.000 Y79.376
G1 X27.029 Y79.322
G1 X27.530 Y74.848
G1 0.00000 F2400.00000
G1 X30.249 Y74.396 F7800.000
G1 2.00000 F2400.00000
G1 X30.359 Y74.846 F1200.000
G1 X31.642 Y79.221
G1 X31.631 Y79.311
G1 X31.546 Y79.499
G1 X31.292 Y79.555
G1 X34.299 Y80.548 F7800.000
G1 X36.432 Y81.779 F1200.000
G1 X36.521 Y82.010 F7800.000
G1 X36.361 Y81.798 F1200.000
G1 X36.324 Y81.717
G1 X36.412 Y81.709
G1 X36.676 Y81.742
G1 X37.312 Y82.468 F7800.000
G1 X37.537 Y82.243 F1200.000
G1 X38.112 Y82.749 F7800.000
G1 X44.053 Y86.179 F1200.000
G1 X44.297 Y86.142 F7800.000
G1 X44.033 Y86.109 F1200.000
G1 X43.945 Y86.117
G1 X43.982 Y86.198
G1 X44.142 Y86.410
G1 X44.933 Y86.868 F7800.000
G1 X45.158 Y86.643 F1200.000
G1 X45.733 Y87.149 F7800.000
G1 X52.126 Y90.840 F1200.000
G1 X52.260 Y90.975
G1 0.00000 F2400.00000
G1 X38.112 Y71.651 F7800.000
G1 2.00000 F2400.00000
G1 X44.053 Y68.221 F1200.000
G1 X44.142 Y67.990 F7800.000
G1 X43.982 Y68.202 F1200.000
G1 X43.945 Y68.283
G1 X44.033 Y68.291
G1 X44.297 Y68.258
G1 X44.932 Y67.776 F7800.000
G1 X45.158 Y67.549 F1200.000
G1 X45.733 Y67.251 F7800.000
G1 X52.302 Y63.458 F1200.000
G1 X37.537 Y71.949 F7800.000
G1 X37.311 Y72.176 F1200.000
G1 X36.676 Y72.658 F7800.000
G1 X36.412 Y72.691 F1200.000
G1 X36.324 Y72.683
G1 X36.361 Y72.602
G1 X36.521 Y72.390
G1 X36.432 Y72.621 F7800.000
G1 X34.228 Y73.893 F1200.000
G1 X28.500 Y70.586 F7800.000
G1 X28.500 Y68.165 F1200.000
G1 X28.551 Y68.093
G1 X28.655 Y67.849
G1 X28.396 Y67.024 F7800.000
G1 X28.619 Y66.800 F1200.000
G1 X28.500 Y66.101 F7800.000
G1 X28.500 Y59.365 F1200.000
G1 X28.551 Y59.293
G1 X28.655 Y59.049
G1 X28.396 Y58.224 F7800.000
G1 X28.619 Y58.000 F1200.000
G1 X28.500 Y57.301 F7800.000
G1 X28.500 Y49.715 F1200.000
G1 0.00000 F2400.00000
G1 X19.706 Y71.950 F7800.000
G1 2.00000 F2400.00000
G1 X19.481 Y72.176 F1200.000
G1 X18.888 Y71.651 F7800.000
G1 X13.055 Y68.283 F1200.000
G1 X13.018 Y68.202
G1 X12.858 Y67.990
G1 X12.085 Y67.550 F7800.000
G1 X11.860 Y67.776 F1200.000
G1 X11.267 Y67.251 F7800.000
G1 X4.874 Y63.560 F1200.000
G1 X4.718 Y63.560
G1 X20.479 Y72.390 F7800.000
G1 X20.639 Y72.602 F1200.000
G1 X20.676 Y72.683
G1 X22.772 Y73.893
G1 0.00000 F2400.00000
G1 X33.800 Y80.260 F7800.000
G1 2.00000 F2400.00000
G1 X33.767 Y80.317 F1200.000
G1 X33.565 Y80.473
G1 X33.193 Y80.559
G1 X33.041 Y80.698
G1 X28.943 Y83.060
G1 X28.500 Y83.238
G1 X28.004 Y83.034
G1 X23.696 Y80.546
G1 X23.271 Y80.219
G1 X23.200 Y79.688
G1 X23.200 Y74.712
G1 X23.271 Y74.181
G1 X23.696 Y73.854
G1 X24.066 Y73.640
G1 X24.281 Y73.577
G1 X24.443 Y73.423
G1 X28.057 Y71.340
G1 X28.500 Y71.162
G1 X28.996 Y71.366
G1 X33.304 Y73.854
G1 X33.729 Y74.181
G1 X33.800 Y74.712
G1 X33.800 Y80.185
G1 0.00000 F2400.00000
G1 X22.772 Y80.507 F7800.000
G1 2.00000 F2400.00000
G1 X20.676 Y81.717 F1200.000
G1 X20.639 Y81.798
G1 X20.479 Y82.010
G1 X19.706 Y82.241 F7800.000
G1 X19.480 Y82.468 F1200.000
G1 X18.888 Y82.749 F7800.000
G1 X13.055 Y86.117 F1200.000
G1 X13.018 Y86.198
G1 X12.858 Y86.410
G1 X12.085 Y86.641 F7800.000
G1 X11.859 Y86.868 F1200.000
G1 X11.267 Y87.149 F7800.000
G1 X4.698 Y90.942 F1200.000
G1 Z1.300 F7800.000
G1 0.00000 F2400.00000
G1 X33.350 Y80.074 F7800.000
G1 2.00000 F2400.00000
G1 X32.565 Y80.017 F900.000
G1 X32.666 Y80.395
G1 X28.796 Y82.629
G1 X28.500 Y82.709
G1 X28.203 Y82.629
G1 X23.946 Y80.171
G1 X23.729 Y79.954
G1 X23.650 Y79.658
G1 X23.650 Y74.742
G1 X23.729 Y74.446
G1 X23.946 Y74.229
G1 X24.194 Y74.086
G1 X24.459 Y74.197
G1 X24.663 Y74.330
G1 X24.869 Y74.577
G1 X25.069 Y74.962
G1 X25.219 Y74.433
G1 X25.501 Y74.174
G1 X24.937 Y74.168
G1 X24.818 Y73.725
G1 X28.204 Y71.771
G1 X28.500 Y71.691
G1 X28.796 Y71.771
G1 X33.054 Y74.229
G1 X33.271 Y74.446
G1 X33.350 Y74.742
G1 X33.350 Y79.999
G1 X33.326 Y80.573 F7800.000
G1 0.00000 F2400.00000
G1 X28.500 Y67.647 F7800.000
G1 2.00000 F2400.00000
G1 X27.909 Y66.803 F900.000
G1 X28.500 Y66.379
G1 X29.091 Y66.803
G1 X28.543 Y67.585
G1 0.00000 F2400.00000
G1 X31.556 Y63.636 F7800.000
G1 2.00000 F2400.00000
G1 X31.556 Y63.063 F900.000
G1 X31.960 Y63.059
G1 X32.094 Y63.440
G1 X31.626 Y63.610
G1 0.00000 F2400.00000
G1 X34.538 Y59.376 F7800.000
G1 2.00000 F2400.00000
G1 X34.538 Y58.804 F900.000
G1 X34.942 Y58.799
G1 X35.076 Y59.181
G1 X34.609 Y59.351
G1 0.00000 F2400.00000
G1 X31.635 Y55.296 F7800.000
G1 2.00000 F2400.00000
G1 X31.097 Y55.491 F900.000
G1 X31.097 Y54.919
G1 X31.501 Y54.914
G1 X31.610 Y55.225
G1 0.00000 F2400.00000
G1 X29.091 Y58.003 F7800.000
G1 2.00000 F2400.00000
G1 X28.500 Y58.847 F900.000
G1 X27.909 Y58.003
G1 X28.500 Y57.579
G1 X29.030 Y57.959
G1 0.00000 F2400.00000
G1 X25.903 Y55.491 F7800.000
G1 2.00000 F2400.00000
G1 X25.365 Y55.296 F900.000
G1 X25.499 Y54.914
G1 X25.903 Y54.919
G1 X25.903 Y55.416
G1 0.00000 F2400.00000
G1 X22.462 Y58.804 F7800.000
G1 2.00000 F2400.00000
G1 X22.462 Y59.376 F900.000
G1 X21.924 Y59.181
G1 X22.058 Y58.799
G1 X22.387 Y58.803
G1 0.00000 F2400.00000
G1 X25.444 Y63.063 F7800.000
G1 2.00000 F2400.00000
G1 X25.444 Y63.636 F900.000
G1 X24.906 Y63.440
G1 X25.040 Y63.059
G1 X25.369 Y63.063
G1 0.00000 F2400.00000
G1 X18.381 Y67.208 F7800.000
G1 2.00000 F2400.00000
G1 X18.281 Y67.772 F900.000
G1 X17.785 Y67.485
G1 X17.983 Y67.133
G1 X18.307 Y67.194
G1 0.00000 F2400.00000
G1 X16.083 Y63.059 F7800.000
G1 2.00000 F2400.00000
G1 X15.588 Y62.773 F900.000
G1 X15.786 Y62.421
G1 X16.183 Y62.495
G1 X16.097 Y62.985
G1 0.00000 F2400.00000
G1 X11.098 Y63.533 F7800.000
G1 2.00000 F2400.00000
G1 X10.998 Y64.097 F900.000
G1 X10.502 Y63.810
G1 X10.701 Y63.458
G1 X11.024 Y63.519
G1 0.00000 F2400.00000
G1 X12.170 Y67.090 F7800.000
G1 2.00000 F2400.00000
G1 X12.606 Y68.023 F900.000
G1 X11.579 Y68.113
G1 X11.508 Y67.390
G1 X12.102 Y67.121
G1 0.00000 F2400.00000
G1 X8.401 Y68.595 F7800.000
G1 2.00000 F2400.00000
G1 X7.963 Y68.963 F900.000
G1 X7.700 Y68.656
G1 X7.906 Y68.308
G1 X8.336 Y68.557
G1 0.00000 F2400.00000
G1 X9.549 Y73.231 F7800.000
G1 2.00000 F2400.00000
G1 X10.045 Y73.518 F900.000
G1 X9.607 Y73.886
G1 X9.344 Y73.579
G1 X9.511 Y73.296
G1 0.00000 F2400.00000
G1 X14.524 Y73.126 F7800.000
G1 2.00000 F2400.00000
G1 X14.730 Y72.778 F900.000
G1 X15.225 Y73.064
G1 X14.787 Y73.432
G1 X14.573 Y73.183
G1 0.00000 F2400.00000
G1 X19.200 Y72.513 F7800.000
G1 2.00000 F2400.00000
G1 X19.129 Y71.790 F900.000
G1 X19.791 Y71.490
G1 X20.227 Y72.423
G1 X19.275 Y72.507
G1 0.00000 F2400.00000
G1 X19.200 Y81.887 F7800.000
G1 2.00000 F2400.00000
G1 X20.227 Y81.977 F900.000
G1 X19.791 Y82.910
G1 X19.129 Y82.610
G1 X19.193 Y81.961
G1 0.00000 F2400.00000
G1 X15.225 Y81.336 F7800.000
G1 2.00000 F2400.00000
G1 X14.730 Y81.622 F900.000
G1 X14.524 Y81.274
G1 X14.787 Y80.968
G1 X15.168 Y81.287
G1 0.00000 F2400.00000
G1 X10.045 Y80.882 F7800.000
G1 2.00000 F2400.00000
G1 X9.549 Y81.169 F900.000
G1 X9.344 Y80.821
G1 X9.607 Y80.514
G1 X9.988 Y80.834
G1 0.00000 F2400.00000
G1 X7.963 Y85.437 F7800.000
G1 2.00000 F2400.00000
G1 X8.401 Y85.805 F900.000
G1 X7.906 Y86.092
G1 X7.700 Y85.744
G1 X7.914 Y85.494
G1 0.00000 F2400.00000
G1 X11.579 Y86.287 F7800.000
G1 2.00000 F2400.00000
G1 X12.606 Y86.377 F900.000
G1 X12.170 Y87.310
G1 X11.508 Y87.010
G1 X11.572 Y86.361
G1 0.00000 F2400.00000
G1 X10.998 Y90.303 F7800.000
G1 2.00000 F2400.00000
G1 X11.098 Y90.867 F900.000
G1 X10.700 Y90.942
G1 X10.502 Y90.590
G1 X10.933 Y90.341
G1 0.00000 F2400.00000
G1 X15.588 Y91.627 F7800.000
G1 2.00000 F2400.00000
G1 X16.083 Y91.341 F900.000
G1 X16.183 Y91.905
G1 X15.786 Y91.979
G1 X15.624 Y91.693
G1 0.00000 F2400.00000
G1 X17.785 Y86.915 F7800.000
G1 2.00000 F2400.00000
G1 X18.281 Y86.628 F900.000
G1 X18.381 Y87.192
G1 X17.983 Y87.267
G1 X17.822 Y86.980
G1 0.00000 F2400.00000
G1 X24.906 Y90.960 F7800.000
G1 2.00000 F2400.00000
G1 X25.444 Y90.764 F900.000
G1 X25.444 Y91.337
G1 X25.040 Y91.341
G1 X24.931 Y91.031
G1 0.00000 F2400.00000
G1 X22.462 Y95.024 F7800.000
G1 2.00000 F2400.00000
G1 X22.462 Y95.596 F900.000
G1 X22.058 Y95.601
G1 X21.924 Y95.219
G1 X22.391 Y95.049
G1 0.00000 F2400.00000
G1 X25.365 Y99.104 F7800.000
G1 2.00000 F2400.00000
G1 X25.903 Y98.909 F900.000
G1 X25.903 Y99.481
G1 X25.499 Y99.486
G1 X25.390 Y99.175
G1 0.00000 F2400.00000
G1 X27.909 Y96.397 F7800.000
G1 2.00000 F2400.00000
G1 X28.500 Y95.553 F900.000
G1 X29.091 Y96.397
G1 X28.500 Y96.821
G1 X27.970 Y96.441
G1 0.00000 F2400.00000
G1 X31.097 Y98.909 F7800.000
G1 2.00000 F2400.00000
G1 X31.635 Y99.104 F900.000
G1 X31.501 Y99.486
G1 X31.097 Y99.481
G1 X31.097 Y98.984
G1 0.00000 F2400.00000
G1 X34.538 Y95.596 F7800.000
G1 2.00000 F2400.00000
G1 X34.538 Y95.024 F900.000
G1 X35.076 Y95.219
G1 X34.942 Y95.601
G1 X34.613 Y95.597
G1 0.00000 F2400.00000
G1 X31.556 Y91.337 F7800.000
G1 2.00000 F2400.00000
G1 X31.556 Y90.764 F900.000
G1 X32.094 Y90.960
G1 X31.960 Y91.341
G1 X31.631 Y91.337
G1 0.00000 F2400.00000
G1 X29.091 Y87.597 F7800.000
G1 2.00000 F2400.00000
G1 X28.500 Y88.021 F900.000
G1 X27.909 Y87.597
G1 X28.500 Y86.753
G1 X29.048 Y87.536
G1 0.00000 F2400.00000
G1 X37.209 Y82.910 F7800.000
G1 2.00000 F2400.00000
G1 X36.773 Y81.977 F900.000
G1 X37.800 Y81.887
G1 X37.871 Y82.610
G1 X37.277 Y82.879
G1 0.00000 F2400.00000
G1 X38.719 Y86.628 F7800.000
G1 2.00000 F2400.00000
G1 X39.215 Y86.915 F900.000
G1 X39.017 Y87.267
G1 X38.619 Y87.192
G1 X38.706 Y86.702
G1 0.00000 F2400.00000
G1 X40.917 Y91.341 F7800.000
G1 2.00000 F2400.00000
G1 X41.412 Y91.627 F900.000
G1 X41.214 Y91.979
G1 X40.817 Y91.905
G1 X40.903 Y91.415
G1 0.00000 F2400.00000
G1 X45.902 Y90.867 F7800.000
G1 2.00000 F2400.00000
G1 X46.002 Y90.303 F900.000
G1 X46.498 Y90.590
G1 X46.299 Y90.942
G1 X45.976 Y90.881
G1 0.00000 F2400.00000
G1 X44.830 Y87.310 F7800.000
G1 2.00000 F2400.00000
G1 X44.394 Y86.377 F900.000
G1 X45.421 Y86.287
G1 X45.492 Y87.010
G1 X44.898 Y87.279
G1 0.00000 F2400.00000
G1 X48.599 Y85.805 F7800.000
G1 2.00000 F2400.00000
G1 X49.037 Y85.437 F900.000
G1 X49.300 Y85.744
G1 X49.094 Y86.092
G1 X48.664 Y85.843
G1 0.00000 F2400.00000
G1 X47.451 Y81.169 F7800.000
G1 2.00000 F2400.00000
G1 X46.955 Y80.882 F900.000
G1 X47.393 Y80.514
G1 X47.656 Y80.821
G1 X47.489 Y81.104
G1 0.00000 F2400.00000
G1 X42.476 Y81.274 F7800.000
G1 2.00000 F2400.00000
G1 X42.270 Y81.622 F900.000
G1 X41.775 Y81.336
G1 X42.213 Y80.968
G1 X42.427 Y81.217
G1 0.00000 F2400.00000
G1 X42.213 Y73.432 F7800.000
G1 2.00000 F2400.00000
G1 X41.775 Y73.064 F900.000
G1 X42.270 Y72.778
G1 X42.476 Y73.126
G1 X42.262 Y73.375
G1 0.00000 F2400.00000
G1 X37.800 Y72.513 F7800.000
G1 2.00000 F2400.00000
G1 X36.773 Y72.423 F900.000
G1 X37.209 Y71.490
G1 X37.871 Y71.790
G1 X37.807 Y72.439
G1 0.00000 F2400.00000
G1 X38.719 Y67.772 F7800.000
G1 2.00000 F2400.00000
G1 X38.619 Y67.208 F900.000
G1 X39.017 Y67.133
G1 X39.215 Y67.485
G1 X38.784 Y67.734
G1 0.00000 F2400.00000
G1 X40.917 Y63.059 F7800.000
G1 2.00000 F2400.00000
G1 X40.817 Y62.495 F900.000
G1 X41.214 Y62.421
G1 X41.412 Y62.773
G1 X40.981 Y63.021
G1 0.00000 F2400.00000
G1 X45.902 Y63.533 F7800.000
G1 2.00000 F2400.00000
G1 X46.299 Y63.458 F900.000
G1 X46.498 Y63.810
G1 X46.002 Y64.097
G1 X45.915 Y63.607
G1 0.00000 F2400.00000
G1 X44.830 Y67.090 F7800.000
G1 2.00000 F2400.00000
G1 X45.492 Y67.390 F900.000
G1 X45.421 Y68.113
G1 X44.394 Y68.023
G1 X44.798 Y67.158
G1 0.00000 F2400.00000
G1 X48.599 Y68.595 F7800.000
G1 2.00000 F2400.00000
G1 X49.094 Y68.308 F900.000
G1 X49.300 Y68.656
G1 X49.037 Y68.963
G1 X48.656 Y68.643
G1 0.00000 F2400.00000
G1 X47.451 Y73.231 F7800.000
G1 2.00000 F2400.00000
G1 X47.656 Y73.579 F900.000
G1 X47.393 Y73.886
G1 X46.955 Y73.518
G1 X47.386 Y73.269
G1 X47.895 Y73.093 F7800.000
G1 X48.016 Y73.298 F1800.000
G1 X48.197 Y73.375
G1 X49.888 Y73.523
G1 X50.092 Y73.629
G1 X50.145 Y73.797
G1 X50.064 Y73.952
G1 X49.845 Y74.021
G1 X48.153 Y73.873
G1 X47.962 Y73.918
G1 X47.807 Y74.099
G1 X47.788 Y74.336
G1 X47.892 Y74.503
G1 X49.565 Y75.907
G1 X49.626 Y75.994
G1 X49.633 Y76.067
G1 X49.602 Y76.133
G1 X49.542 Y76.175
G1 X49.469 Y76.182
G1 X49.372 Y76.136
G1 X46.645 Y73.848
G1 X46.492 Y73.755
G1 X46.318 Y73.713
G1 X42.973 Y73.420
G1 X42.782 Y73.465
G1 X42.626 Y73.646
G1 X42.608 Y73.883
G1 X42.712 Y74.050
G1 X45.304 Y76.225
G1 X45.365 Y76.313
G1 X45.372 Y76.385
G1 X45.341 Y76.452
G1 X45.281 Y76.494
G1 X45.208 Y76.500
G1 X45.111 Y76.455
G1 X41.465 Y73.395
G1 X41.312 Y73.302
G1 X41.137 Y73.260
G1 X36.883 Y72.887
G1 X36.704 Y72.899
G1 X36.537 Y72.964
G1 X34.250 Y74.284
G1 X34.250 Y80.116
G1 X36.537 Y81.436
G1 X36.704 Y81.501
G1 X36.883 Y81.513
G1 X41.137 Y81.140
G1 X41.312 Y81.098
G1 X41.465 Y81.005
G1 X45.111 Y77.945
G1 X45.246 Y77.882
G1 X45.421 Y78.008
G1 X45.304 Y78.175
G1 X42.712 Y80.350
G1 X42.608 Y80.517
G1 X42.626 Y80.754
G1 X42.782 Y80.935
G1 X42.973 Y80.980
G1 X46.318 Y80.687
G1 X46.492 Y80.645
G1 X46.645 Y80.552
G1 X49.372 Y78.264
G1 X49.469 Y78.218
G1 X49.542 Y78.225
G1 X49.602 Y78.267
G1 X49.633 Y78.333
G1 X49.626 Y78.406
G1 X49.565 Y78.493
G1 X47.892 Y79.897
G1 X47.788 Y80.064
G1 X47.807 Y80.301
G1 X47.962 Y80.482
G1 X48.153 Y80.527
G1 X49.845 Y80.379
G1 X50.064 Y80.448
G1 X50.145 Y80.603
G1 X50.092 Y80.771
G1 X49.888 Y80.877
G1 X48.197 Y81.025
G1 X48.016 Y81.102
G1 X47.895 Y81.307
G1 X47.918 Y81.544
G1 X48.049 Y81.690
G1 X49.940 Y82.782
G1 X50.016 Y82.858
G1 X50.035 Y82.928
G1 X50.016 Y82.999
G1 X49.964 Y83.051
G1 X49.893 Y83.070
G1 X49.790 Y83.042
G1 X46.707 Y81.262
G1 X46.540 Y81.197
G1 X46.361 Y81.185
G1 X43.016 Y81.478
G1 X42.836 Y81.555
G1 X42.714 Y81.760
G1 X42.738 Y81.997
G1 X42.869 Y82.144
G1 X45.799 Y83.835
G1 X45.875 Y83.911
G1 X45.894 Y83.982
G1 X45.875 Y84.052
G1 X45.823 Y84.104
G1 X45.752 Y84.123
G1 X45.649 Y84.095
G1 X41.527 Y81.715
G1 X41.360 Y81.650
G1 X41.181 Y81.639
G1 X38.582 Y81.866
G1 X38.401 Y81.943
G1 X38.280 Y82.148
G1 X38.303 Y82.385
G1 X38.435 Y82.532
G1 X44.158 Y85.836
G1 X44.325 Y85.901
G1 X44.504 Y85.913
G1 X47.962 Y85.610
G1 X48.136 Y85.568
G1 X48.289 Y85.475
G1 X51.016 Y83.186
G1 X51.113 Y83.141
G1 X51.186 Y83.148
G1 X51.246 Y83.189
G1 X51.276 Y83.256
G1 X51.270 Y83.329
G1 X51.209 Y83.416
G1 X49.536 Y84.820
G1 X49.432 Y84.987
G1 X49.451 Y85.224
G1 X49.606 Y85.405
G1 X49.797 Y85.450
G1 X51.489 Y85.302
G1 X51.707 Y85.371
G1 X51.788 Y85.526
G1 X51.736 Y85.694
G1 X51.532 Y85.800
G1 X49.841 Y85.948
G1 X49.660 Y86.025
G1 X49.539 Y86.230
G1 X49.562 Y86.467
G1 X49.693 Y86.613
G1 X51.584 Y87.705
G1 X51.660 Y87.781
G1 X51.679 Y87.851
G1 X51.660 Y87.922
G1 X51.608 Y87.974
G1 X51.537 Y87.993
G1 X51.434 Y87.965
G1 X48.351 Y86.185
G1 X48.184 Y86.120
G1 X48.005 Y86.108
G1 X46.203 Y86.266
G1 X46.023 Y86.343
G1 X45.901 Y86.548
G1 X45.924 Y86.785
G1 X46.056 Y86.932
G1 X52.361 Y90.572
G1 X52.547 Y90.815
G1 X52.514 Y91.065
G1 X52.314 Y91.218
G1 X52.011 Y91.178
G1 X45.706 Y87.538
G1 X45.513 Y87.497
G1 X45.296 Y87.596
G1 X45.179 Y87.803
G1 X45.203 Y87.998
G1 X45.967 Y89.638
G1 X46.067 Y89.787
G1 X46.207 Y89.899
G1 X49.290 Y91.679
G1 X49.365 Y91.755
G1 X49.384 Y91.825
G1 X49.365 Y91.896
G1 X49.314 Y91.947
G1 X49.243 Y91.966
G1 X49.140 Y91.939
G1 X47.249 Y90.847
G1 X47.056 Y90.807
G1 X46.839 Y90.905
G1 X46.723 Y91.113
G1 X46.746 Y91.308
G1 X47.464 Y92.847
G1 X47.474 Y93.076
G1 X47.355 Y93.205
G1 X47.180 Y93.213
G1 X47.011 Y93.058
G1 X46.293 Y91.519
G1 X46.159 Y91.376
G1 X45.924 Y91.332
G1 X45.709 Y91.435
G1 X45.617 Y91.608
G1 X45.238 Y93.758
G1 X45.192 Y93.855
G1 X45.133 Y93.897
G1 X45.060 Y93.903
G1 X44.994 Y93.873
G1 X44.952 Y93.813
G1 X44.942 Y93.706
G1 X45.560 Y90.200
G1 X45.564 Y90.021
G1 X45.514 Y89.849
G1 X44.047 Y86.704
G1 X43.948 Y86.554
G1 X43.808 Y86.442
G1 X38.085 Y83.138
G1 X37.892 Y83.097
G1 X37.675 Y83.196
G1 X37.558 Y83.403
G1 X37.582 Y83.598
G1 X38.684 Y85.963
G1 X38.784 Y86.112
G1 X38.924 Y86.224
G1 X43.046 Y88.604
G1 X43.151 Y88.709
G1 X43.093 Y88.917
G1 X42.896 Y88.864
G1 X39.966 Y87.172
G1 X39.774 Y87.132
G1 X39.556 Y87.230
G1 X39.440 Y87.438
G1 X39.463 Y87.633
G1 X40.882 Y90.676
G1 X40.982 Y90.825
G1 X41.121 Y90.937
G1 X44.204 Y92.717
G1 X44.280 Y92.792
G1 X44.299 Y92.863
G1 X44.280 Y92.934
G1 X44.228 Y92.985
G1 X44.158 Y93.004
G1 X44.054 Y92.977
G1 X42.163 Y91.885
G1 X41.971 Y91.844
G1 X41.754 Y91.943
G1 X41.637 Y92.150
G1 X41.661 Y92.345
G1 X42.378 Y93.884
G1 X42.388 Y94.114
G1 X42.270 Y94.243
G1 X42.094 Y94.251
G1 X41.925 Y94.096
G1 X41.208 Y92.557
G1 X41.073 Y92.413
G1 X40.839 Y92.369
G1 X40.624 Y92.473
G1 X40.532 Y92.646
G1 X40.152 Y94.796
G1 X40.107 Y94.893
G1 X40.047 Y94.935
G1 X39.975 Y94.941
G1 X39.908 Y94.910
G1 X39.866 Y94.851
G1 X39.857 Y94.744
G1 X40.475 Y91.238
G1 X40.479 Y91.059
G1 X40.429 Y90.887
G1 X39.010 Y87.844
G1 X38.876 Y87.701
G1 X38.641 Y87.657
G1 X38.427 Y87.760
G1 X38.334 Y87.933
G1 X37.746 Y91.265
G1 X37.701 Y91.362
G1 X37.641 Y91.404
G1 X37.569 Y91.410
G1 X37.502 Y91.379
G1 X37.460 Y91.320
G1 X37.451 Y91.213
G1 X38.278 Y86.525
G1 X38.281 Y86.346
G1 X38.231 Y86.174
G1 X36.426 Y82.304
G1 X36.327 Y82.154
G1 X36.187 Y82.042
G1 X33.900 Y80.722
G1 X28.850 Y83.637
G1 X28.850 Y86.278
G1 X28.877 Y86.455
G1 X28.957 Y86.616
G1 X31.406 Y90.115
G1 X31.530 Y90.244
G1 X31.687 Y90.330
G1 X36.160 Y91.958
G1 X36.248 Y92.020
G1 X36.279 Y92.086
G1 X36.272 Y92.159
G1 X36.230 Y92.219
G1 X36.164 Y92.249
G1 X36.057 Y92.240
G1 X32.878 Y91.083
G1 X32.682 Y91.077
G1 X32.485 Y91.211
G1 X32.406 Y91.436
G1 X32.463 Y91.624
G1 X34.389 Y94.374
G1 X34.513 Y94.504
G1 X34.670 Y94.590
G1 X38.015 Y95.807
G1 X38.103 Y95.869
G1 X38.134 Y95.935
G1 X38.127 Y96.008
G1 X38.085 Y96.068
G1 X38.019 Y96.099
G1 X37.912 Y96.089
G1 X35.861 Y95.343
G1 X35.664 Y95.336
G1 X35.468 Y95.471
G1 X35.389 Y95.696
G1 X35.446 Y95.883
G1 X36.420 Y97.274
G1 X36.469 Y97.498
G1 X36.375 Y97.646
G1 X36.203 Y97.684
G1 X36.010 Y97.561
G1 X35.036 Y96.170
G1 X34.879 Y96.052
G1 X34.641 Y96.050
G1 X34.447 Y96.189
G1 X34.386 Y96.375
G1 X34.386 Y98.559
G1 X34.358 Y98.662
G1 X34.306 Y98.714
G1 X34.236 Y98.733
G1 X34.165 Y98.714
G1 X34.113 Y98.662
G1 X34.086 Y98.559
G1 X34.086 Y94.999
G1 X34.058 Y94.822
G1 X33.979 Y94.661
G1 X32.053 Y91.911
G1 X31.896 Y91.793
G1 X31.658 Y91.790
G1 X31.464 Y91.929
G1 X31.403 Y92.116
G1 X31.403 Y95.499
G1 X31.375 Y95.603
G1 X31.324 Y95.654
G1 X31.253 Y95.673
G1 X31.183 Y95.654
G1 X31.131 Y95.603
G1 X31.103 Y95.499
G1 X31.103 Y90.739
G1 X31.076 Y90.562
G1 X30.997 Y90.401
G1 X29.500 Y88.264
G1 X29.343 Y88.146
G1 X29.105 Y88.144
G1 X28.911 Y88.283
G1 X28.850 Y88.469
G1 X28.850 Y95.078
G1 X28.877 Y95.255
G1 X28.957 Y95.416
G1 X30.947 Y98.259
G1 X31.071 Y98.389
G1 X31.228 Y98.475
G1 X34.573 Y99.692
G1 X34.661 Y99.754
G1 X34.692 Y99.820
G1 X34.686 Y99.893
G1 X34.644 Y99.953
G1 X34.578 Y99.984
G1 X34.471 Y99.974
G1 X32.419 Y99.228
G1 X32.223 Y99.221
G1 X32.026 Y99.356
G1 X31.947 Y99.581
G1 X32.004 Y99.769
G1 X32.978 Y101.160
G1 X33.028 Y101.383
G1 X32.933 Y101.532
G1 X32.762 Y101.570
G1 X32.569 Y101.446
G1 X31.595 Y100.055
G1 X31.437 Y99.937
G1 X31.199 Y99.935
G1 X31.005 Y100.074
G1 X30.944 Y100.260
G1 X30.944 Y102.444
G1 X30.917 Y102.547
G1 X30.865 Y102.599
G1 X30.794 Y102.618
G1 X30.724 Y102.599
G1 X30.672 Y102.547
G1 X30.644 Y102.444
G1 X30.644 Y98.884
G1 X30.617 Y98.707
G1 X30.538 Y98.546
G1 X29.500 Y97.064
G1 X29.343 Y96.946
G1 X29.105 Y96.944
G1 X28.911 Y97.083
G1 X28.850 Y97.269
G1 X28.839 Y105.070
G1 X28.500 Y104.929
G1 X28.161 Y105.070
G1 X28.150 Y97.269
G1 X28.089 Y97.083
G1 X27.895 Y96.944
G1 X27.657 Y96.946
G1 X27.500 Y97.064
G1 X26.462 Y98.546
G1 X26.383 Y98.707
G1 X26.356 Y98.884
G1 X26.356 Y102.444
G1 X26.328 Y102.547
G1 X26.276 Y102.599
G1 X26.206 Y102.618
G1 X26.135 Y102.599
G1 X26.083 Y102.547
G1 X26.056 Y102.444
G1 X26.056 Y100.260
G1 X25.995 Y100.074
G1 X25.801 Y99.935
G1 X25.563 Y99.937
G1 X25.405 Y100.055
G1 X24.431 Y101.446
G1 X24.238 Y101.570
G1 X24.067 Y101.532
G1 X23.972 Y101.383
G1 X24.022 Y101.160
G1 X24.996 Y99.769
G1 X25.053 Y99.581
G1 X24.974 Y99.356
G1 X24.777 Y99.221
G1 X24.581 Y99.228
G1 X22.529 Y99.974
G1 X22.422 Y99.984
G1 X22.356 Y99.953
G1 X22.314 Y99.893
G1 X22.308 Y99.820
G1 X22.339 Y99.754
G1 X22.427 Y99.692
G1 X25.772 Y98.475
G1 X25.929 Y98.389
G1 X26.053 Y98.259
G1 X28.043 Y95.416
G1 X28.123 Y95.255
G1 X28.150 Y95.078
G1 X28.150 Y88.469
G1 X28.089 Y88.283
G1 X27.895 Y88.144
G1 X27.657 Y88.146
G1 X27.500 Y88.264
G1 X26.003 Y90.401
G1 X25.924 Y90.562
G1 X25.897 Y90.739
G1 X25.897 Y95.499
G1 X25.869 Y95.603
G1 X25.817 Y95.654
G1 X25.747 Y95.673
G1 X25.676 Y95.654
G1 X25.625 Y95.603
G1 X25.597 Y95.499
G1 X25.597 Y92.116
G1 X25.536 Y91.929
G1 X25.342 Y91.790
G1 X25.104 Y91.793
G1 X24.947 Y91.911
G1 X23.021 Y94.661
G1 X22.942 Y94.822
G1 X22.914 Y94.999
G1 X22.914 Y98.559
G1 X22.886 Y98.662
G1 X22.835 Y98.714
G1 X22.764 Y98.733
G1 X22.694 Y98.714
G1 X22.642 Y98.662
G1 X22.614 Y98.559
G1 X22.614 Y96.375
G1 X22.553 Y96.189
G1 X22.359 Y96.050
G1 X22.121 Y96.052
G1 X21.964 Y96.170
G1 X20.990 Y97.561
G1 X20.797 Y97.684
G1 X20.625 Y97.646
G1 X20.531 Y97.498
G1 X20.580 Y97.274
G1 X21.554 Y95.883
G1 X21.611 Y95.696
G1 X21.532 Y95.471
G1 X21.336 Y95.336
G1 X21.139 Y95.343
G1 X19.088 Y96.089
G1 X18.981 Y96.099
G1 X18.915 Y96.068
G1 X18.873 Y96.008
G1 X18.866 Y95.935
G1 X18.897 Y95.869
G1 X18.985 Y95.807
G1 X22.330 Y94.590
G1 X22.487 Y94.504
G1 X22.611 Y94.374
G1 X24.537 Y91.624
G1 X24.594 Y91.436
G1 X24.515 Y91.211
G1 X24.318 Y91.077
G1 X24.122 Y91.083
G1 X20.943 Y92.240
G1 X20.794 Y92.253
G1 X20.673 Y92.075
G1 X20.840 Y91.958
G1 X25.313 Y90.330
G1 X25.470 Y90.244
G1 X25.594 Y90.115
G1 X28.043 Y86.616
G1 X28.123 Y86.455
G1 X28.150 Y86.278
G1 X28.150 Y83.637
G1 X23.100 Y80.722
G1 X20.813 Y82.042
G1 X20.673 Y82.154
G1 X20.574 Y82.304
G1 X18.769 Y86.174
G1 X18.719 Y86.346
G1 X18.722 Y86.525
G1 X19.549 Y91.213
G1 X19.536 Y91.361
G1 X19.340 Y91.450
G1 X19.254 Y91.265
G1 X18.666 Y87.933
G1 X18.573 Y87.760
G1 X18.359 Y87.657
G1 X18.124 Y87.701
G1 X17.990 Y87.844
G1 X16.571 Y90.887
G1 X16.521 Y91.059
G1 X16.525 Y91.238
G1 X17.143 Y94.744
G1 X17.134 Y94.851
G1 X17.092 Y94.910
G1 X17.025 Y94.941
G1 X16.953 Y94.935
G1 X16.893 Y94.893
G1 X16.848 Y94.796
G1 X16.468 Y92.646
G1 X16.376 Y92.473
G1 X16.161 Y92.369
G1 X15.927 Y92.413
G1 X15.792 Y92.557
G1 X15.075 Y94.096
G1 X14.906 Y94.251
G1 X14.730 Y94.243
G1 X14.612 Y94.114
G1 X14.622 Y93.884
G1 X15.339 Y92.345
G1 X15.363 Y92.150
G1 X15.246 Y91.943
G1 X15.029 Y91.844
G1 X14.837 Y91.885
G1 X12.946 Y92.977
G1 X12.842 Y93.004
G1 X12.772 Y92.985
G1 X12.720 Y92.934
G1 X12.701 Y92.863
G1 X12.720 Y92.792
G1 X12.796 Y92.717
G1 X15.879 Y90.937
G1 X16.018 Y90.825
G1 X16.118 Y90.676
G1 X17.537 Y87.633
G1 X17.560 Y87.438
G1 X17.444 Y87.230
G1 X17.226 Y87.132
G1 X17.034 Y87.172
G1 X14.104 Y88.864
G1 X14.002 Y88.891
G1 X13.740 Y88.818
G1 X13.954 Y88.604
G1 X18.076 Y86.224
G1 X18.216 Y86.112
G1 X18.316 Y85.963
G1 X19.418 Y83.598
G1 X19.442 Y83.403
G1 X19.325 Y83.196
G1 X19.108 Y83.097
G1 X18.915 Y83.138
G1 X13.192 Y86.442
G1 X13.052 Y86.554
G1 X12.953 Y86.704
G1 X11.486 Y89.849
G1 X11.436 Y90.021
G1 X11.440 Y90.200
G1 X12.058 Y93.706
G1 X12.048 Y93.813
G1 X12.006 Y93.873
G1 X11.940 Y93.903
G1 X11.867 Y93.897
G1 X11.808 Y93.855
G1 X11.762 Y93.758
G1 X11.383 Y91.608
G1 X11.291 Y91.435
G1 X11.076 Y91.332
G1 X10.841 Y91.376
G1 X10.707 Y91.519
G1 X9.989 Y93.058
G1 X9.820 Y93.213
G1 X9.645 Y93.205
G1 X9.526 Y93.076
G1 X9.536 Y92.847
G1 X10.254 Y91.308
G1 X10.277 Y91.113
G1 X10.161 Y90.905
G1 X9.944 Y90.807
G1 X9.751 Y90.847
G1 X7.860 Y91.939
G1 X7.757 Y91.966
G1 X7.686 Y91.947
G1 X7.635 Y91.896
G1 X7.616 Y91.825
G1 X7.635 Y91.755
G1 X7.710 Y91.679
G1 X10.793 Y89.899
G1 X10.933 Y89.787
G1 X11.033 Y89.638
G1 X11.797 Y87.998
G1 X11.821 Y87.803
G1 X11.704 Y87.596
G1 X11.487 Y87.497
G1 X11.294 Y87.538
G1 X4.989 Y91.178
G1 X4.686 Y91.218
G1 X4.486 Y91.065
G1 X4.453 Y90.815
G1 X4.639 Y90.572
G1 X10.944 Y86.932
G1 X11.076 Y86.785
G1 X11.099 Y86.548
G1 X10.977 Y86.343
G1 X10.797 Y86.266
G1 X8.995 Y86.108
G1 X8.816 Y86.120
G1 X8.649 Y86.185
G1 X5.566 Y87.965
G1 X5.463 Y87.993
G1 X5.392 Y87.974
G1 X5.340 Y87.922
G1 X5.321 Y87.851
G1 X5.340 Y87.781
G1 X5.416 Y87.705
G1 X7.307 Y86.613
G1 X7.438 Y86.467
G1 X7.461 Y86.230
G1 X7.340 Y86.025
G1 X7.159 Y85.948
G1 X5.468 Y85.800
G1 X5.264 Y85.694
G1 X5.212 Y85.526
G1 X5.293 Y85.371
G1 X5.511 Y85.302
G1 X7.203 Y85.450
G1 X7.394 Y85.405
G1 X7.549 Y85.224
G1 X7.568 Y84.987
G1 X7.464 Y84.820
G1 X5.791 Y83.416
G1 X5.730 Y83.329
G1 X5.724 Y83.256
G1 X5.754 Y83.189
G1 X5.814 Y83.148
G1 X5.887 Y83.141
G1 X5.984 Y83.186
G1 X8.711 Y85.475
G1 X8.864 Y85.568
G1 X9.038 Y85.610
G1 X12.496 Y85.913
G1 X12.675 Y85.901
G1 X12.842 Y85.836
G1 X18.565 Y82.532
G1 X18.697 Y82.385
G1 X18.720 Y82.148
G1 X18.599 Y81.943
G1 X18.418 Y81.866
G1 X15.819 Y81.639
G1 X15.640 Y81.650
G1 X15.473 Y81.715
G1 X11.351 Y84.095
G1 X11.207 Y84.134
G1 X11.057 Y83.980
G1 X11.201 Y83.835
G1 X14.131 Y82.144
G1 X14.262 Y81.997
G1 X14.286 Y81.760
G1 X14.164 Y81.555
G1 X13.984 Y81.478
G1 X10.639 Y81.185
G1 X10.460 Y81.197
G1 X10.293 Y81.262
G1 X7.210 Y83.042
G1 X7.107 Y83.070
G1 X7.036 Y83.051
G1 X6.984 Y82.999
G1 X6.965 Y82.928
G1 X6.984 Y82.858
G1 X7.060 Y82.782
G1 X8.951 Y81.690
G1 X9.082 Y81.544
G1 X9.105 Y81.307
G1 X8.984 Y81.102
G1 X8.803 Y81.025
G1 X7.112 Y80.877
G1 X6.908 Y80.771
G1 X6.855 Y80.603
G1 X6.936 Y80.448
G1 X7.155 Y80.379
G1 X8.847 Y80.527
G1 X9.038 Y80.482
G1 X9.193 Y80.301
G1 X9.212 Y80.064
G1 X9.108 Y79.897
G1 X7.435 Y78.493
G1 X7.316 Y78.324
G1 X7.495 Y78.201
G1 X7.628 Y78.264
G1 X10.355 Y80.552
G1 X10.508 Y80.645
G1 X10.682 Y80.687
G1 X14.027 Y80.980
G1 X14.218 Y80.935
G1 X14.374 Y80.754
G1 X14.392 Y80.517
G1 X14.288 Y80.350
G1 X11.696 Y78.175
G1 X11.636 Y78.089
G1 X11.615 Y77.818
G1 X11.889 Y77.945
G1 X15.535 Y81.005
G1 X15.688 Y81.098
G1 X15.863 Y81.140
G1 X20.117 Y81.513
G1 X20.296 Y81.501
G1 X20.463 Y81.436
G1 X22.750 Y80.116
G1 X22.750 Y74.284
G1 X20.463 Y72.964
G1 X20.296 Y72.899
G1 X20.117 Y72.887
G1 X15.863 Y73.260
G1 X15.688 Y73.302
G1 X15.535 Y73.395
G1 X11.889 Y76.455
G1 X11.754 Y76.518
G1 X11.579 Y76.392
G1 X11.696 Y76.225
G1 X14.288 Y74.050
G1 X14.392 Y73.883
G1 X14.374 Y73.646
G1 X14.218 Y73.465
G1 X14.027 Y73.420
G1 X10.682 Y73.713
G1 X10.508 Y73.755
G1 X10.355 Y73.848
G1 X7.628 Y76.136
G1 X7.531 Y76.182
G1 X7.458 Y76.175
G1 X7.398 Y76.133
G1 X7.367 Y76.067
G1 X7.374 Y75.994
G1 X7.435 Y75.907
G1 X9.108 Y74.503
G1 X9.212 Y74.336
G1 X9.193 Y74.099
G1 X9.038 Y73.918
G1 X8.847 Y73.873
G1 X7.155 Y74.021
G1 X6.936 Y73.952
G1 X6.855 Y73.797
G1 X6.908 Y73.629
G1 X7.112 Y73.523
G1 X8.803 Y73.375
G1 X8.984 Y73.298
G1 X9.105 Y73.093
G1 X9.082 Y72.856
G1 X8.951 Y72.710
G1 X7.060 Y71.618
G1 X6.984 Y71.542
G1 X6.965 Y71.472
G1 X6.984 Y71.401
G1 X7.036 Y71.349
G1 X7.107 Y71.330
G1 X7.210 Y71.358
G1 X10.293 Y73.138
G1 X10.460 Y73.203
G1 X10.639 Y73.215
G1 X13.984 Y72.922
G1 X14.164 Y72.845
G1 X14.286 Y72.640
G1 X14.262 Y72.403
G1 X14.131 Y72.256
G1 X11.201 Y70.565
G1 X11.125 Y70.489
G1 X11.106 Y70.418
G1 X11.125 Y70.348
G1 X11.177 Y70.296
G1 X11.247 Y70.277
G1 X11.351 Y70.305
G1 X15.473 Y72.685
G1 X15.640 Y72.750
G1 X15.819 Y72.761
G1 X18.418 Y72.534
G1 X18.599 Y72.457
G1 X18.720 Y72.252
G1 X18.697 Y72.015
G1 X18.565 Y71.868
G1 X12.842 Y68.564
G1 X12.675 Y68.499
G1 X12.496 Y68.487
G1 X9.038 Y68.790
G1 X8.864 Y68.832
G1 X8.711 Y68.925
G1 X5.984 Y71.214
G1 X5.887 Y71.259
G1 X5.814 Y71.252
G1 X5.754 Y71.211
G1 X5.724 Y71.144
G1 X5.730 Y71.071
G1 X5.791 Y70.984
G1 X7.464 Y69.580
G1 X7.568 Y69.413
G1 X7.549 Y69.176
G1 X7.394 Y68.995
G1 X7.203 Y68.950
G1 X5.511 Y69.098
G1 X5.293 Y69.029
G1 X5.212 Y68.874
G1 X5.264 Y68.706
G1 X5.468 Y68.600
G1 X7.159 Y68.452
G1 X7.340 Y68.375
G1 X7.461 Y68.170
G1 X7.438 Y67.933
G1 X7.307 Y67.787
G1 X5.416 Y66.695
G1 X5.340 Y66.619
G1 X5.321 Y66.549
G1 X5.340 Y66.478
G1 X5.392 Y66.426
G1 X5.463 Y66.407
G1 X5.566 Y66.435
G1 X8.649 Y68.215
G1 X8.816 Y68.280
G1 X8.995 Y68.292
G1 X10.797 Y68.134
G1 X10.977 Y68.057
G1 X11.099 Y67.852
G1 X11.076 Y67.615
G1 X10.944 Y67.468
G1 X4.639 Y63.828
G1 X4.453 Y63.585
G1 X4.486 Y63.335
G1 X4.686 Y63.182
G1 X4.989 Y63.222
G1 X11.294 Y66.862
G1 X11.487 Y66.903
G1 X11.704 Y66.804
G1 X11.821 Y66.597
G1 X11.797 Y66.402
G1 X11.033 Y64.762
G1 X10.933 Y64.613
G1 X10.793 Y64.501
G1 X7.710 Y62.721
G1 X7.635 Y62.645
G1 X7.616 Y62.575
G1 X7.635 Y62.504
G1 X7.686 Y62.453
G1 X7.757 Y62.434
G1 X7.860 Y62.461
G1 X9.751 Y63.553
G1 X9.944 Y63.593
G1 X10.161 Y63.495
G1 X10.277 Y63.287
G1 X10.254 Y63.092
G1 X9.536 Y61.553
G1 X9.526 Y61.324
G1 X9.645 Y61.195
G1 X9.820 Y61.187
G1 X9.989 Y61.342
G1 X10.707 Y62.881
G1 X10.841 Y63.024
G1 X11.076 Y63.068
G1 X11.291 Y62.965
G1 X11.383 Y62.792
G1 X11.762 Y60.642
G1 X11.808 Y60.545
G1 X11.867 Y60.503
G1 X11.940 Y60.497
G1 X12.006 Y60.527
G1 X12.048 Y60.587
G1 X12.058 Y60.694
G1 X11.440 Y64.200
G1 X11.436 Y64.379
G1 X11.486 Y64.551
G1 X12.953 Y67.696
G1 X13.052 Y67.846
G1 X13.192 Y67.958
G1 X18.915 Y71.262
G1 X19.108 Y71.303
G1 X19.325 Y71.204
G1 X19.442 Y70.997
G1 X19.418 Y70.802
G1 X18.316 Y68.437
G1 X18.216 Y68.288
G1 X18.076 Y68.176
G1 X13.954 Y65.796
G1 X13.808 Y65.649
G1 X13.962 Y65.498
G1 X14.104 Y65.536
G1 X17.034 Y67.228
G1 X17.226 Y67.268
G1 X17.444 Y67.170
G1 X17.560 Y66.962
G1 X17.537 Y66.767
G1 X16.118 Y63.724
G1 X16.018 Y63.575
G1 X15.879 Y63.463
G1 X12.796 Y61.683
G1 X12.720 Y61.608
G1 X12.701 Y61.537
G1 X12.720 Y61.466
G1 X12.772 Y61.415
G1 X12.842 Y61.396
G1 X12.946 Y61.423
G1 X14.837 Y62.515
G1 X15.029 Y62.556
G1 X15.246 Y62.457
G1 X15.363 Y62.250
G1 X15.339 Y62.055
G1 X14.622 Y60.516
G1 X14.612 Y60.286
G1 X14.730 Y60.157
G1 X14.906 Y60.149
G1 X15.075 Y60.304
G1 X15.792 Y61.843
G1 X15.927 Y61.987
G1 X16.161 Y62.031
G1 X16.376 Y61.927
G1 X16.468 Y61.754
G1 X16.848 Y59.604
G1 X16.935 Y59.416
G1 X17.130 Y59.510
G1 X17.143 Y59.656
G1 X16.525 Y63.162
G1 X16.521 Y63.341
G1 X16.571 Y63.513
G1 X17.990 Y66.556
G1 X18.124 Y66.699
G1 X18.359 Y66.743
G1 X18.573 Y66.640
G1 X18.666 Y66.467
G1 X19.254 Y63.135
G1 X19.298 Y63.039
G1 X19.523 Y62.886
G1 X19.549 Y63.187
G1 X18.722 Y67.875
G1 X18.719 Y68.054
G1 X18.769 Y68.226
G1 X20.574 Y72.096
G1 X20.673 Y72.246
G1 X20.813 Y72.358
G1 X23.100 Y73.678
G1 X28.150 Y70.763
G1 X28.150 Y68.122
G1 X28.123 Y67.945
G1 X28.043 Y67.784
G1 X25.594 Y64.285
G1 X25.470 Y64.156
G1 X25.313 Y64.070
G1 X20.840 Y62.442
G1 X20.754 Y62.381
G1 X20.642 Y62.134
G1 X20.943 Y62.160
G1 X24.122 Y63.317
G1 X24.318 Y63.323
G1 X24.515 Y63.189
G1 X24.594 Y62.964
G1 X24.537 Y62.776
G1 X22.611 Y60.026
G1 X22.487 Y59.896
G1 X22.330 Y59.810
G1 X18.985 Y58.593
G1 X18.897 Y58.531
G1 X18.866 Y58.465
G1 X18.873 Y58.392
G1 X18.915 Y58.332
G1 X18.981 Y58.301
G1 X19.088 Y58.311
G1 X21.139 Y59.057
G1 X21.336 Y59.064
G1 X21.532 Y58.929
G1 X21.611 Y58.704
G1 X21.554 Y58.517
G1 X20.580 Y57.126
G1 X20.531 Y56.902
G1 X20.625 Y56.754
G1 X20.797 Y56.716
G1 X20.990 Y56.839
G1 X21.964 Y58.230
G1 X22.121 Y58.348
G1 X22.359 Y58.350
G1 X22.553 Y58.211
G1 X22.614 Y58.025
G1 X22.614 Y55.841
G1 X22.642 Y55.738
G1 X22.694 Y55.686
G1 X22.764 Y55.667
G1 X22.835 Y55.686
G1 X22.886 Y55.738
G1 X22.914 Y55.841
G1 X22.914 Y59.401
G1 X22.942 Y59.578
G1 X23.021 Y59.739
G1 X24.947 Y62.489
G1 X25.104 Y62.607
G1 X25.342 Y62.610
G1 X25.536 Y62.471
G1 X25.597 Y62.284
G1 X25.597 Y58.901
G1 X25.625 Y58.797
G1 X25.676 Y58.746
G1 X25.747 Y58.727
G1 X25.817 Y58.746
G1 X25.869 Y58.797
G1 X25.897 Y58.901
G1 X25.897 Y63.661
G1 X25.924 Y63.838
G1 X26.003 Y63.999
G1 X27.500 Y66.136
G1 X27.657 Y66.254
G1 X27.895 Y66.256
G1 X28.089 Y66.117
G1 X28.150 Y65.931
G1 X28.150 Y59.322
G1 X28.123 Y59.145
G1 X28.043 Y58.984
G1 X26.053 Y56.141
G1 X25.929 Y56.011
G1 X25.772 Y55.925
G1 X22.427 Y54.708
G1 X22.339 Y54.646
G1 X22.308 Y54.580
G1 X22.314 Y54.507
G1 X22.356 Y54.447
G1 X22.422 Y54.416
G1 X22.529 Y54.426
G1 X24.581 Y55.172
G1 X24.777 Y55.179
G1 X24.974 Y55.044
G1 X25.053 Y54.819
G1 X24.996 Y54.631
G1 X24.022 Y53.240
G1 X23.972 Y53.017
G1 X24.067 Y52.868
G1 X24.238 Y52.830
G1 X24.431 Y52.954
G1 X25.405 Y54.345
G1 X25.563 Y54.463
G1 X25.801 Y54.465
G1 X25.995 Y54.326
G1 X26.056 Y54.140
G1 X26.056 Y51.956
G1 X26.083 Y51.853
G1 X26.135 Y51.801
G1 X26.206 Y51.782
G1 X26.276 Y51.801
G1 X26.328 Y51.853
G1 X26.356 Y51.956
G1 X26.356 Y55.516
G1 X26.383 Y55.693
G1 X26.462 Y55.854
G1 X27.500 Y57.336
G1 X27.657 Y57.454
G1 X27.895 Y57.456
G1 X28.089 Y57.317
G1 X28.150 Y57.131
G1 X28.150 Y49.850
G1 X28.266 Y49.569
G1 X28.508 Y49.474
G1 X28.733 Y49.567
G1 X28.850 Y49.850
G1 X28.850 Y57.131
G1 X28.911 Y57.317
G1 X29.105 Y57.456
G1 X29.343 Y57.454
G1 X29.500 Y57.336
G1 X30.538 Y55.854
G1 X30.617 Y55.693
G1 X30.644 Y55.516
G1 X30.644 Y51.956
G1 X30.672 Y51.853
G1 X30.724 Y51.801
G1 X30.794 Y51.782
G1 X30.865 Y51.801
G1 X30.917 Y51.853
G1 X30.944 Y51.956
G1 X30.944 Y54.140
G1 X31.005 Y54.326
G1 X31.199 Y54.465
G1 X31.437 Y54.463
G1 X31.595 Y54.345
G1 X32.569 Y52.954
G1 X32.762 Y52.830
G1 X32.933 Y52.868
G1 X33.028 Y53.017
G1 X32.978 Y53.240
G1 X32.004 Y54.631
G1 X31.947 Y54.819
G1 X32.026 Y55.044
G1 X32.223 Y55.179
G1 X32.419 Y55.172
G1 X34.471 Y54.426
G1 X34.578 Y54.416
G1 X34.644 Y54.447
G1 X34.686 Y54.507
G1 X34.692 Y54.580
G1 X34.661 Y54.646
G1 X34.573 Y54.708
G1 X31.228 Y55.925
G1 X31.071 Y56.011
G1 X30.947 Y56.141
G1 X28.957 Y58.984
G1 X28.877 Y59.145
G1 X28.850 Y59.322
G1 X28.850 Y65.931
G1 X28.911 Y66.117
G1 X29.105 Y66.256
G1 X29.343 Y66.254
G1 X29.500 Y66.136
G1 X30.997 Y63.999
G1 X31.076 Y63.838
G1 X31.103 Y63.661
G1 X31.103 Y58.901
G1 X31.131 Y58.797
G1 X31.183 Y58.746
G1 X31.253 Y58.727
G1 X31.324 Y58.746
G1 X31.375 Y58.797
G1 X31.403 Y58.901
G1 X31.403 Y62.284
G1 X31.464 Y62.471
G1 X31.658 Y62.610
G1 X31.896 Y62.607
G1 X32.053 Y62.489
G1 X33.979 Y59.739
G1 X34.058 Y59.578
G1 X34.086 Y59.401
G1 X34.086 Y55.841
G1 X34.113 Y55.738
G1 X34.165 Y55.686
G1 X34.236 Y55.667
G1 X34.306 Y55.686
G1 X34.358 Y55.738
G1 X34.386 Y55.841
G1 X34.386 Y58.025
G1 X34.447 Y58.211
G1 X34.641 Y58.350
G1 X34.879 Y58.348
G1 X35.036 Y58.230
G1 X36.010 Y56.839
G1 X36.203 Y56.716
G1 X36.375 Y56.754
G1 X36.469 Y56.902
G1 X36.420 Y57.126
G1 X35.446 Y58.517
G1 X35.389 Y58.704
G1 X35.468 Y58.929
G1 X35.664 Y59.064
G1 X35.861 Y59.057
G1 X37.912 Y58.311
G1 X38.019 Y58.301
G1 X38.085 Y58.332
G1 X38.127 Y58.392
G1 X38.134 Y58.465
G1 X38.103 Y58.531
G1 X38.015 Y58.593
G1 X34.670 Y59.810
G1 X34.513 Y59.896
G1 X34.389 Y60.026
G1 X32.463 Y62.776
G1 X32.406 Y62.964
G1 X32.485 Y63.189
G1 X32.682 Y63.323
G1 X32.878 Y63.317
G1 X36.057 Y62.160
G1 X36.164 Y62.151
G1 X36.230 Y62.181
G1 X36.272 Y62.241
G1 X36.279 Y62.314
G1 X36.248 Y62.380
G1 X36.160 Y62.442
G1 X31.687 Y64.070
G1 X31.530 Y64.156
G1 X31.406 Y64.285
G1 X28.957 Y67.784
G1 X28.877 Y67.945
G1 X28.850 Y68.122
G1 X28.850 Y70.763
G1 X33.900 Y73.678
G1 X36.187 Y72.358
G1 X36.327 Y72.246
G1 X36.426 Y72.096
G1 X38.231 Y68.226
G1 X38.281 Y68.054
G1 X38.278 Y67.875
G1 X37.451 Y63.187
G1 X37.460 Y63.080
G1 X37.502 Y63.021
G1 X37.569 Y62.990
G1 X37.641 Y62.996
G1 X37.701 Y63.038
G1 X37.746 Y63.135
G1 X38.334 Y66.467
G1 X38.427 Y66.640
G1 X38.641 Y66.743
G1 X38.876 Y66.699
G1 X39.010 Y66.556
G1 X40.429 Y63.513
G1 X40.479 Y63.341
G1 X40.475 Y63.162
G1 X39.857 Y59.656
G1 X39.875 Y59.450
G1 X40.090 Y59.471
G1 X40.152 Y59.604
G1 X40.532 Y61.754
G1 X40.624 Y61.927
G1 X40.839 Y62.031
G1 X41.073 Y61.987
G1 X41.208 Y61.843
G1 X41.925 Y60.304
G1 X42.094 Y60.149
G1 X42.270 Y60.157
G1 X42.388 Y60.286
G1 X42.378 Y60.516
G1 X41.661 Y62.055
G1 X41.637 Y62.250
G1 X41.754 Y62.457
G1 X41.971 Y62.556
G1 X42.163 Y62.515
G1 X44.054 Y61.423
G1 X44.158 Y61.396
G1 X44.228 Y61.415
G1 X44.280 Y61.466
G1 X44.299 Y61.537
G1 X44.280 Y61.608
G1 X44.204 Y61.683
G1 X41.121 Y63.463
G1 X40.982 Y63.575
G1 X40.882 Y63.724
G1 X39.463 Y66.767
G1 X39.440 Y66.962
G1 X39.556 Y67.170
G1 X39.774 Y67.268
G1 X39.966 Y67.228
G1 X42.896 Y65.536
G1 X42.998 Y65.509
G1 X43.260 Y65.582
G1 X43.046 Y65.796
G1 X38.924 Y68.176
G1 X38.784 Y68.288
G1 X38.684 Y68.437
G1 X37.582 Y70.802
G1 X37.558 Y70.997
G1 X37.675 Y71.204
G1 X37.892 Y71.303
G1 X38.085 Y71.262
G1 X43.808 Y67.958
G1 X43.948 Y67.846
G1 X44.047 Y67.696
G1 X45.514 Y64.551
G1 X45.564 Y64.379
G1 X45.560 Y64.200
G1 X44.942 Y60.694
G1 X44.952 Y60.587
G1 X44.994 Y60.527
G1 X45.060 Y60.497
G1 X45.133 Y60.503
G1 X45.192 Y60.545
G1 X45.238 Y60.642
G1 X45.617 Y62.792
G1 X45.709 Y62.965
G1 X45.924 Y63.068
G1 X46.159 Y63.024
G1 X46.293 Y62.881
G1 X47.011 Y61.342
G1 X47.180 Y61.187
G1 X47.355 Y61.195
G1 X47.474 Y61.324
G1 X47.464 Y61.553
G1 X46.746 Y63.092
G1 X46.723 Y63.287
G1 X46.839 Y63.495
G1 X47.056 Y63.593
G1 X47.249 Y63.553
G1 X49.140 Y62.461
G1 X49.243 Y62.434
G1 X49.314 Y62.453
G1 X49.365 Y62.504
G1 X49.384 Y62.575
G1 X49.365 Y62.645
G1 X49.290 Y62.721
G1 X46.207 Y64.501
G1 X46.067 Y64.613
G1 X45.967 Y64.762
G1 X45.203 Y66.402
G1 X45.179 Y66.597
G1 X45.296 Y66.804
G1 X45.513 Y66.903
G1 X45.706 Y66.862
G1 X52.011 Y63.222
G1 X52.314 Y63.182
G1 X52.514 Y63.335
G1 X52.547 Y63.585
G1 X52.361 Y63.828
G1 X46.056 Y67.468
G1 X45.924 Y67.615
G1 X45.901 Y67.852
G1 X46.023 Y68.057
G1 X46.203 Y68.134
G1 X48.005 Y68.292
G1 X48.184 Y68.280
G1 X48.351 Y68.215
G1 X51.434 Y66.435
G1 X51.537 Y66.407
G1 X51.608 Y66.426
G1 X51.660 Y66.478
G1 X51.679 Y66.549
G1 X51.660 Y66.619
G1 X51.584 Y66.695
G1 X49.693 Y67.787
G1 X49.562 Y67.933
G1 X49.539 Y68.170
G1 X49.660 Y68.375
G1 X49.841 Y68.452
G1 X51.532 Y68.600
G1 X51.736 Y68.706
G1 X51.788 Y68.874
G1 X51.707 Y69.029
G1 X51.489 Y69.098
G1 X49.797 Y68.950
G1 X49.606 Y68.995
G1 X49.451 Y69.176
G1 X49.432 Y69.413
G1 X49.536 Y69.580
G1 X51.209 Y70.984
G1 X51.270 Y71.071
G1 X51.276 Y71.144
G1 X51.246 Y71.211
G1 X51.186 Y71.252
G1 X51.113 Y71.259
G1 X51.016 Y71.214
G1 X48.289 Y68.925
G1 X48.136 Y68.832
G1 X47.961 Y68.790
G1 X44.504 Y68.487
G1 X44.325 Y68.499
G1 X44.158 Y68.564
G1 X38.435 Y71.868
G1 X38.303 Y72.015
G1 X38.280 Y72.252
G1 X38.401 Y72.457
G1 X38.582 Y72.534
G1 X41.181 Y72.761
G1 X41.360 Y72.750
G1 X41.527 Y72.685
G1 X45.649 Y70.305
G1 X45.793 Y70.266
G1 X45.943 Y70.420
G1 X45.799 Y70.565
G1 X42.869 Y72.256
G1 X42.738 Y72.403
G1 X42.714 Y72.640
G1 X42.836 Y72.845
G1 X43.016 Y72.922
G1 X46.361 Y73.215
G1 X46.540 Y73.203
G1 X46.707 Y73.138
G1 X49.790 Y71.358
G1 X49.893 Y71.330
G1 X49.964 Y71.349
G1 X50.016 Y71.401
G1 X50.035 Y71.472
G1 X50.016 Y71.542
G1 X49.940 Y71.618
G1 X48.049 Y72.710
G1 X47.918 Y72.856
G1 X47.902 Y73.018
G1 X47.737 Y73.272 F7800.000
G1 0.00000 F2400.00000
G1 X31.324 Y79.112 F7800.000
G1 2.00000 F2400.00000
G1 X30.069 Y74.785 F900.000
G1 X29.943 Y74.477
G1 X29.683 Y74.170
G1 X30.785 Y74.170
G1 X30.584 Y74.541
G1 X30.613 Y74.778
G1 X31.903 Y79.179
G1 X32.023 Y79.530
G1 X32.243 Y79.950
G1 X31.281 Y79.943
G1 X30.865 Y79.328
G1 X31.256 Y79.144
G1 X31.796 Y78.947 F7800.000
G1 0.00000 F2400.00000
G1 X28.005 Y75.126 F7800.000
G1 2.00000 F2400.00000
G1 X30.721 Y79.120 F1800.000
G1 0.00000 F2400.00000
G1 X26.227 Y78.907 F7800.000
G1 2.00000 F2400.00000
G1 X25.326 Y75.794 F1800.000
G1 X25.334 Y75.277
G1 0.00000 F2400.00000
G1 X26.791 Y79.109 F7800.000
G1 2.00000 F2400.00000
G1 X27.352 Y74.185 F900.000
G1 X27.787 Y74.823
G1 X27.222 Y79.951
G1 X26.077 Y79.951
G1 X26.419 Y79.591
G1 X26.293 Y79.152
G1 X26.716 Y79.115
G1 X27.291 Y79.132 F7800.000
G1 0.00000 F2400.00000
G1 X27.911 Y104.880 F7800.000
G1 2.00000 F2400.00000
G1 X27.403 Y105.588 F1800.000
G1 X27.258 Y106.100
G1 X27.241 Y106.307
G1 X27.256 Y106.433
G1 X27.544 Y107.010
G1 X27.682 Y107.186
G1 X28.500 Y107.491
G1 X29.318 Y107.186
G1 X29.456 Y107.010
G1 X29.744 Y106.433
G1 X29.759 Y106.307
G1 X29.742 Y106.100
G1 X29.597 Y105.588
G1 X29.089 Y104.879
G1 X28.500 Y104.685 F7800.000
G1 X28.500 Y97.099 F1200.000
G1 X28.619 Y96.400 F7800.000
G1 X28.396 Y96.176 F900.000
G1 X28.655 Y95.351 F7800.000
G1 X28.551 Y95.107 F1200.000
G1 X28.500 Y95.035
G1 X28.500 Y88.299
G1 X28.619 Y87.600 F7800.000
G1 X28.396 Y87.376 F900.000
G1 X28.655 Y86.551 F7800.000
G1 X28.551 Y86.307 F1200.000
G1 X28.500 Y86.235
G1 X28.500 Y83.814
G1 0.00000 F2400.00000
G1 X26.639 Y79.537 F7800.000
G1 2.00000 F2400.00000
G1 X26.844 Y79.528 F1200.000
G1 X27.000 Y79.376
G1 X27.029 Y79.322
G1 X27.530 Y74.848
G1 0.00000 F2400.00000
G1 X30.249 Y74.396 F7800.000
G1 2.00000 F2400.00000
G1 X30.357 Y74.835 F1200.000
G1 X31.636 Y79.222
G1 X31.627 Y79.302
G1 X31.543 Y79.500
G1 X31.292 Y79.555
G1 0.00000 F2400.00000
G1 X34.299 Y80.548 F7800.000
G1 2.00000 F2400.00000
G1 X36.432 Y81.779 F1200.000
G1 X36.521 Y82.010 F7800.000
G1 X36.361 Y81.798 F1200.000
G1 X36.324 Y81.717
G1 X36.412 Y81.709
G1 X36.676 Y81.742
G1 X37.311 Y82.224 F7800.000
G1 X37.537 Y82.451 F900.000
G1 X38.112 Y82.749 F7800.000
G1 X44.053 Y86.179 F1200.000
G1 X44.142 Y86.410 F7800.000
G1 X43.982 Y86.198 F1200.000
G1 X43.945 Y86.117
G1 X44.033 Y86.109
G1 X44.297 Y86.142
G1 X44.932 Y86.624 F7800.000
G1 X45.158 Y86.851 F900.000
G1 X45.733 Y87.149 F7800.000
G1 X52.126 Y90.840 F1200.000
G1 X52.282 Y90.840
G1 0.00000 F2400.00000
G1 X37.537 Y72.157 F7800.000
G1 2.00000 F2400.00000
G1 X37.312 Y71.932 F900.000
G1 X38.112 Y71.651 F7800.000
G1 X44.053 Y68.221 F1200.000
G1 X44.142 Y67.990 F7800.000
G1 X43.982 Y68.202 F1200.000
G1 X43.945 Y68.283
G1 X44.033 Y68.291
G1 X44.297 Y68.258
G1 X44.933 Y67.532 F7800.000
G1 X45.158 Y67.757 F900.000
G1 X45.733 Y67.251 F7800.000
G1 X52.126 Y63.560 F1200.000
G1 X52.282 Y63.560
G1 0.00000 F2400.00000
G1 X36.676 Y72.658 F7800.000
G1 2.00000 F2400.00000
G1 X36.412 Y72.691 F1200.000
G1 X36.324 Y72.683
G1 X36.361 Y72.602
G1 X36.521 Y72.390
G1 X36.432 Y72.621 F7800.000
G1 X34.228 Y73.893 F1200.000
G1 0.00000 F2400.00000
G1 X28.500 Y70.586 F7800.000
G1 2.00000 F2400.00000
G1 X28.500 Y68.165 F1200.000
G1 X28.551 Y68.093
G1 X28.655 Y67.849
G1 X28.619 Y67.008 F7800.000
G1 X28.396 Y66.785 F900.000
G1 X28.500 Y66.101 F7800.000
G1 X28.500 Y59.365 F1200.000
G1 X28.551 Y59.293
G1 X28.655 Y59.049
G1 X28.619 Y58.208 F7800.000
G1 X28.396 Y57.985 F900.000
G1 X28.500 Y57.301 F7800.000
G1 X28.500 Y49.720 F1200.000
G1 0.00000 F2400.00000
G1 X18.888 Y71.651 F7800.000
G1 2.00000 F2400.00000
G1 X13.055 Y68.283 F1200.000
G1 X13.018 Y68.202
G1 X12.858 Y67.990
G1 X12.085 Y67.759 F7800.000
G1 X11.859 Y67.532 F900.000
G1 X11.267 Y67.251 F7800.000
G1 X4.874 Y63.560 F1200.000
G1 X4.740 Y63.425
G1 0.00000 F2400.00000
G1 X19.480 Y71.932 F7800.000
G1 2.00000 F2400.00000
G1 X19.706 Y72.159 F900.000
G1 X20.479 Y72.390 F7800.000
G1 X20.639 Y72.602 F1200.000
G1 X20.676 Y72.683
G1 X22.772 Y73.893
G1 0.00000 F2400.00000
G1 X33.800 Y80.260 F7800.000
G1 2.00000 F2400.00000
G1 X33.767 Y80.317 F1200.000
G1 X33.636 Y80.447
G1 X33.193 Y80.559
G1 X33.041 Y80.698
G1 X28.943 Y83.060
G1 X28.500 Y83.238
G1 X28.004 Y83.034
G1 X23.696 Y80.546
G1 X23.271 Y80.219
G1 X23.200 Y79.688
G1 X23.200 Y74.712
G1 X23.271 Y74.181
G1 X23.696 Y73.854
G1 X24.066 Y73.640
G1 X24.281 Y73.577
G1 X24.443 Y73.423
G1 X28.057 Y71.340
G1 X28.500 Y71.162
G1 X28.996 Y71.366
G1 X33.304 Y73.854
G1 X33.729 Y74.181
G1 X33.800 Y74.712
G1 X33.800 Y80.185
G1 0.00000 F2400.00000
G1 X22.772 Y80.507 F7800.000
G1 2.00000 F2400.00000
G1 X20.676 Y81.717 F1200.000
G1 X20.639 Y81.798
G1 X20.479 Y82.010
G1 X19.706 Y82.450 F7800.000
G1 X19.481 Y82.224 F900.000
G1 X18.888 Y82.749 F7800.000
G1 X13.055 Y86.117 F1200.000
G1 X13.018 Y86.198
G1 X12.858 Y86.410
G1 X12.085 Y86.850 F7800.000
G1 X11.860 Y86.624 F900.000
G1 X11.267 Y87.149 F7800.000
G1 X4.696 Y90.929 F1200.000
G1 0.00000 F2400.00000
M30     ; disable motors

; filament used = 0.0mm (0.0cm3)

; avoid_crossing_perimeters = 0
; bed_shape = -1x-1,58x-1,58x158,-1x158
; bed_temperature = 0
; before_layer_gcode = 
; bridge_acceleration = 0
; bridge_fan_speed = 100
; brim_width = 0
; complete_objects = 0
; cooling = 1
; default_acceleration = 0
; disable_fan_first_layers = 3
; duplicate_distance = 6
; end_gcode = M30     ; disable motors\n
; extruder_clearance_height = 20
; extruder_clearance_radius = 20
; extruder_offset = 0x0
; extrusion_axis = E
; extrusion_multiplier = 1
; fan_always_on = 0
; fan_below_layer_time = 60
; filament_colour = #FFFFFF
; filament_diameter = 3
; first_layer_acceleration = 0
; first_layer_bed_temperature = 0
; first_layer_extrusion_width = 200%
; first_layer_speed = 30
; first_layer_temperature = 205
; gcode_arcs = 0
; gcode_comments = 0
; gcode_flavor = no-extrusion
; infill_acceleration = 0
; infill_first = 0
; layer_gcode = 
; max_fan_speed = 100
; max_print_speed = 80
; max_volumetric_speed = 0
; min_fan_speed = 35
; min_print_speed = 10
; min_skirt_length = 0
; notes = 
; nozzle_diameter = 0.5
; only_retract_when_crossing_perimeters = 1
; ooze_prevention = 0
; output_filename_format = [input_filename_base].gcode
; perimeter_acceleration = 0
; post_process = 
; pressure_advance = 0
; resolution = 0
; retract_before_travel = 2
; retract_layer_change = 0
; retract_length = 2
; retract_length_toolchange = 10
; retract_lift = 0
; retract_restart_extra = 0
; retract_restart_extra_toolchange = 0
; retract_speed = 40
; skirt_distance = 6
; skirt_height = 1
; skirts = 1
; slowdown_below_layer_time = 5
; spiral_vase = 0
; standby_temperature_delta = -5
; start_gcode = G28 ; home all axes\nG1 X0 Y0 Z0 F5000 ; lift nozzle\nM13 H25;\nM11;
; temperature = 200
; threads = 2
